;FLAVOR:Marlin
;TIME:8953
;Filament used: 14.3556m
;Layer height: 0.28
;MINX:41.5
;MINY:66.5
;MINZ:0.28
;MAXX:193.5
;MAXY:168.5
;MAXZ:7.2
;TARGET_MACHINE.NAME:Creality Ender-3
;Generated with Cura_SteamEngine 5.7.1
M140 S70
M105
M190 S70
M104 S240
M105
M109 S240
M82 ;absolute extrusion mode
; Ender 3 Custom Start G-code
G92 E0 ; Reset Extruder
G28 ; Home all axes
G1 Z2.0 F3000 ; Move Z Axis up little to prevent scratching of Heat Bed
G1 X0.1 Y20 Z0.3 F5000.0 ; Move to start position
G1 X0.1 Y200.0 Z0.3 F1500.0 E15 ; Draw the first line
G1 X0.4 Y200.0 Z0.3 F5000.0 ; Move to side a little
G1 X0.4 Y20 Z0.3 F1500.0 E30 ; Draw the second line
G92 E0 ; Reset Extruder
G1 Z2.0 F3000 ; Move Z Axis up little to prevent scratching of Heat Bed
G1 X5 Y20 Z0.3 F5000.0 ; Move over to prevent blob squish
G92 E0
G92 E0
G1 F2700 E-5
;LAYER_COUNT:25
;LAYER:0
M107
G1 F300 Z0.48
G0 F6000 X47.083 Y72.581 Z0.48
;TYPE:SKIRT
G1 F300 Z0.28
G1 F2700 E0
G1 F900 X47.898 Y72.048 E0.04534
G1 X48.748 Y71.592 E0.09026
G1 X49.389 Y71.309 E0.12289
G1 X51.727 Y70.365 E0.24029
G1 X54.087 Y69.336 E0.36018
G1 X56.432 Y68.234 E0.48083
G1 X57.7 Y67.614 E0.54655
G1 X58.528 Y67.253 E0.58861
G1 X59.52 Y66.923 E0.63729
G1 X60.467 Y66.7 E0.68259
G1 X61.361 Y66.57 E0.72466
G1 X62.173 Y66.515 E0.76256
G1 X62.812 Y66.5 E0.79232
G1 X171.804 Y66.5 E5.86744
G1 X172.689 Y66.513 E5.90866
G1 X173.66 Y66.572 E5.95395
G1 X174.624 Y66.718 E5.99935
G1 X175.571 Y66.949 E6.04474
G1 X176.489 Y67.261 E6.08989
G1 X177.302 Y67.614 E6.13116
G1 X179.74 Y68.797 E6.25734
G1 X182.031 Y69.831 E6.37438
G1 X184.407 Y70.825 E6.49431
G1 X185.631 Y71.318 E6.55576
G1 X186.516 Y71.724 E6.60109
G1 X187.362 Y72.207 E6.64646
G1 X188.161 Y72.762 E6.69176
G1 X188.909 Y73.386 E6.73711
G1 X189.575 Y74.048 E6.78084
G1 X190.224 Y74.821 E6.82784
G1 X190.78 Y75.619 E6.87313
G1 X191.266 Y76.463 E6.91848
G1 X191.647 Y77.282 E6.96054
G1 X191.989 Y78.226 E7.00729
G1 X192.172 Y78.88 E7.03891
G1 X192.86 Y81.676 E7.17299
G1 X193.14 Y82.749 E7.22463
G1 X193.342 Y83.702 E7.26999
G1 X193.452 Y84.598 E7.31202
G1 X193.485 Y85.173 E7.33884
G1 X193.5 Y85.83 E7.36944
G1 X193.499 Y156.9 E10.67876
G1 X193.488 Y157.663 E10.71429
G1 X193.431 Y158.636 E10.75967
G1 X193.286 Y159.599 E10.80502
G1 X193.057 Y160.545 E10.85034
G1 X192.746 Y161.469 E10.89574
G1 X192.354 Y162.36 E10.94107
G1 X191.886 Y163.212 E10.98633
G1 X191.364 Y163.993 E11.03007
G1 X190.731 Y164.778 E11.07703
G1 X190.106 Y165.429 E11.11905
G1 X189.317 Y166.117 E11.1678
G1 X188.557 Y166.667 E11.21148
G1 X187.69 Y167.184 E11.25848
G1 X186.812 Y167.606 E11.30384
G1 X185.901 Y167.948 E11.34915
G1 X184.962 Y168.209 E11.39454
G1 X183.996 Y168.387 E11.44027
G1 X182.845 Y168.485 E11.49406
G1 X182.17 Y168.5 E11.5255
G1 X53.064 Y168.499 E17.53722
G1 X52.331 Y168.488 E17.57135
G1 X51.359 Y168.431 E17.61669
G1 X50.396 Y168.285 E17.66205
G1 X49.45 Y168.056 E17.70737
G1 X48.526 Y167.744 E17.75278
G1 X47.636 Y167.352 E17.79806
G1 X46.813 Y166.901 E17.84176
G1 X45.974 Y166.34 E17.88876
G1 X45.27 Y165.774 E17.93082
G1 X44.517 Y165.049 E17.97949
G1 X43.88 Y164.313 E18.02482
G1 X43.35 Y163.582 E18.06686
G1 X42.814 Y162.685 E18.11552
G1 X42.392 Y161.807 E18.16088
G1 X42.05 Y160.895 E18.20623
G1 X41.79 Y159.957 E18.25156
G1 X41.612 Y158.988 E18.29743
G1 X41.514 Y157.809 E18.35252
G1 X41.5 Y157.158 E18.38284
G1 X41.501 Y86.035 E21.69463
G1 X41.514 Y85.293 E21.72918
G1 X41.574 Y84.322 E21.77448
G1 X41.708 Y83.429 E21.81653
G1 X41.858 Y82.762 E21.84836
G1 X42.441 Y80.493 E21.95745
G1 X42.821 Y78.911 E22.03321
G1 X43.092 Y77.975 E22.07858
G1 X43.445 Y77.068 E22.1239
G1 X43.877 Y76.196 E22.16922
G1 X44.385 Y75.365 E22.21457
G1 X44.964 Y74.582 E22.25992
G1 X45.586 Y73.878 E22.30366
G1 X46.319 Y73.184 E22.35066
G1 X47.083 Y72.581 E22.39598
G0 F6000 X47.303 Y72.915
G1 F900 X48.087 Y72.4 E22.43966
G1 X48.91 Y71.958 E22.48316
G1 X49.539 Y71.68 E22.51518
G1 X51.887 Y70.732 E22.63309
G1 X54.247 Y69.703 E22.75297
G1 X56.602 Y68.596 E22.87414
G1 X57.86 Y67.981 E22.93934
G1 X58.688 Y67.62 E22.9814
G1 X59.612 Y67.312 E23.02676
G1 X60.525 Y67.096 E23.07044
G1 X61.419 Y66.966 E23.11251
G1 X62.182 Y66.915 E23.14812
G1 X62.821 Y66.9 E23.17788
G1 X171.798 Y66.9 E28.25231
G1 X172.665 Y66.912 E28.29268
G1 X173.601 Y66.968 E28.33634
G1 X174.53 Y67.107 E28.38008
G1 X175.443 Y67.328 E28.42382
G1 X176.33 Y67.628 E28.46742
G1 X177.127 Y67.974 E28.50788
G1 X179.566 Y69.158 E28.63413
G1 X181.867 Y70.196 E28.75167
G1 X184.258 Y71.196 E28.87235
G1 X185.465 Y71.682 E28.93294
G1 X186.318 Y72.072 E28.97661
G1 X187.134 Y72.536 E29.02032
G1 X187.905 Y73.07 E29.06399
G1 X188.627 Y73.67 E29.1077
G1 X189.293 Y74.332 E29.15143
G1 X189.896 Y75.05 E29.19509
G1 X190.434 Y75.819 E29.23879
G1 X190.903 Y76.632 E29.2825
G1 X191.284 Y77.451 E29.32456
G1 X191.613 Y78.362 E29.36966
G1 X191.784 Y78.976 E29.39934
G1 X192.473 Y81.777 E29.53365
G1 X192.749 Y82.833 E29.58447
G1 X192.945 Y83.751 E29.62818
G1 X193.055 Y84.647 E29.67022
G1 X193.085 Y85.182 E29.69517
G1 X193.1 Y85.83 E29.72535
G1 X193.099 Y156.895 E33.03443
G1 X193.089 Y157.64 E33.06913
G1 X193.035 Y158.577 E33.11283
G1 X192.897 Y159.506 E33.15656
G1 X192.678 Y160.418 E33.20024
G1 X192.38 Y161.308 E33.24394
G1 X192.003 Y162.168 E33.28766
G1 X191.553 Y162.99 E33.3313
G1 X191.031 Y163.771 E33.37504
G1 X190.442 Y164.501 E33.41872
G1 X189.817 Y165.152 E33.46074
G1 X189.082 Y165.793 E33.50615
G1 X188.322 Y166.343 E33.54984
G1 X187.516 Y166.824 E33.59354
G1 X186.671 Y167.232 E33.63724
G1 X185.793 Y167.563 E33.68093
G1 X184.889 Y167.816 E33.72464
G1 X183.962 Y167.988 E33.76854
G1 X182.811 Y168.086 E33.82233
G1 X182.17 Y168.1 E33.85218
G1 X53.07 Y168.099 E39.86362
G1 X52.354 Y168.089 E39.89696
G1 X51.418 Y168.035 E39.94062
G1 X50.489 Y167.896 E39.98436
G1 X49.577 Y167.677 E40.02803
G1 X48.687 Y167.378 E40.07175
G1 X47.828 Y167.001 E40.11543
G1 X47.005 Y166.55 E40.15913
G1 X46.225 Y166.028 E40.20284
G1 X45.521 Y165.462 E40.2449
G1 X44.819 Y164.787 E40.29025
G1 X44.204 Y164.078 E40.33395
G1 X43.674 Y163.347 E40.37599
G1 X43.174 Y162.511 E40.42135
G1 X42.766 Y161.666 E40.46505
G1 X42.435 Y160.788 E40.50874
G1 X42.183 Y159.884 E40.55244
G1 X42.011 Y158.955 E40.59643
G1 X41.913 Y157.776 E40.65152
G1 X41.9 Y157.158 E40.6803
G1 X41.901 Y86.042 E43.99176
G1 X41.913 Y85.317 E44.02552
G1 X41.97 Y84.381 E44.06919
G1 X42.104 Y83.488 E44.11124
G1 X42.245 Y82.862 E44.14112
G1 X42.828 Y80.593 E44.2502
G1 X43.205 Y79.022 E44.32543
G1 X43.465 Y78.12 E44.36914
G1 X43.804 Y77.245 E44.41284
G1 X44.219 Y76.404 E44.45651
G1 X44.707 Y75.602 E44.50022
G1 X45.264 Y74.847 E44.54391
G1 X45.886 Y74.143 E44.58765
G1 X46.567 Y73.498 E44.63133
G1 X47.303 Y72.915 E44.67505
G0 F6000 X47.523 Y73.249
G1 F900 X48.277 Y72.752 E44.7171
G1 X49.072 Y72.324 E44.75914
G1 X49.689 Y72.051 E44.79056
G1 X52.047 Y71.099 E44.90897
G1 X54.407 Y70.07 E45.02885
G1 X56.772 Y68.958 E45.15054
G1 X58.02 Y68.348 E45.21522
G1 X58.848 Y67.987 E45.25728
G1 X59.705 Y67.701 E45.29935
G1 X60.583 Y67.492 E45.34138
G1 X61.477 Y67.362 E45.38344
G1 X62.191 Y67.315 E45.41676
G1 X62.83 Y67.3 E45.44652
G1 X171.793 Y67.3 E50.5203
G1 X172.642 Y67.311 E50.55983
G1 X173.543 Y67.364 E50.60186
G1 X174.437 Y67.496 E50.64394
G1 X175.315 Y67.707 E50.68599
G1 X176.171 Y67.995 E50.72804
G1 X176.952 Y68.334 E50.76769
G1 X179.392 Y69.519 E50.89399
G1 X181.703 Y70.561 E51.01204
G1 X184.109 Y71.567 E51.13347
G1 X185.299 Y72.046 E51.1932
G1 X186.121 Y72.42 E51.23525
G1 X186.907 Y72.865 E51.27731
G1 X187.65 Y73.378 E51.31935
G1 X188.345 Y73.954 E51.36138
G1 X188.987 Y74.59 E51.40346
G1 X189.569 Y75.28 E51.4455
G1 X190.088 Y76.019 E51.48755
G1 X190.54 Y76.801 E51.5296
G1 X190.921 Y77.62 E51.57166
G1 X191.228 Y78.47 E51.61375
G1 X191.396 Y79.072 E51.64285
G1 X192.086 Y81.878 E51.7774
G1 X192.358 Y82.917 E51.82741
G1 X192.548 Y83.8 E51.86947
G1 X192.658 Y84.696 E51.9115
G1 X192.685 Y85.191 E51.93459
G1 X192.7 Y85.83 E51.96435
G1 X192.699 Y156.89 E55.2732
G1 X192.69 Y157.617 E55.30706
G1 X192.639 Y158.519 E55.34912
G1 X192.508 Y159.413 E55.3912
G1 X192.299 Y160.291 E55.43322
G1 X192.013 Y161.148 E55.47529
G1 X191.652 Y161.976 E55.51735
G1 X191.22 Y162.768 E55.55936
G1 X190.719 Y163.52 E55.60144
G1 X190.153 Y164.224 E55.6435
G1 X189.528 Y164.875 E55.68552
G1 X188.847 Y165.469 E55.7276
G1 X188.116 Y166 E55.76967
G1 X187.342 Y166.464 E55.81169
G1 X186.529 Y166.858 E55.85376
G1 X185.685 Y167.178 E55.89579
G1 X184.815 Y167.423 E55.93787
G1 X183.928 Y167.589 E55.97989
G1 X182.777 Y167.687 E56.03368
G1 X182.17 Y167.7 E56.06195
G1 X53.075 Y167.699 E62.07316
G1 X52.377 Y167.69 E62.10566
G1 X51.476 Y167.639 E62.14768
G1 X50.582 Y167.507 E62.18976
G1 X49.704 Y167.298 E62.23179
G1 X48.847 Y167.011 E62.27387
G1 X48.02 Y166.65 E62.31589
G1 X47.227 Y166.217 E62.35796
G1 X46.476 Y165.716 E62.4
G1 X45.772 Y165.15 E62.44206
G1 X45.121 Y164.524 E62.48412
G1 X44.528 Y163.843 E62.52616
G1 X43.998 Y163.112 E62.56821
G1 X43.534 Y162.337 E62.61027
G1 X43.14 Y161.524 E62.65234
G1 X42.82 Y160.68 E62.69437
G1 X42.576 Y159.81 E62.73644
G1 X42.41 Y158.922 E62.7785
G1 X42.313 Y157.767 E62.83248
G1 X42.3 Y157.158 E62.86084
G1 X42.301 Y86.048 E66.17202
G1 X42.312 Y85.341 E66.20494
G1 X42.366 Y84.44 E66.24697
G1 X42.5 Y83.547 E66.28902
G1 X42.632 Y82.962 E66.31695
G1 X43.215 Y80.693 E66.42603
G1 X43.589 Y79.132 E66.50078
G1 X43.838 Y78.264 E66.54282
G1 X44.163 Y77.421 E66.58489
G1 X44.561 Y76.611 E66.62692
G1 X45.029 Y75.839 E66.66895
G1 X45.564 Y75.111 E66.71102
G1 X46.161 Y74.433 E66.75309
G1 X46.816 Y73.811 E66.79515
G1 X47.523 Y73.249 E66.8372
G1 F2700 E61.8372
G1 F300 Z0.48
;MESH:3x5_back_end.stl
G0 F6000 X84.747 Y86.211 Z0.48
;TYPE:WALL-INNER
G1 F300 Z0.28
G1 F2700 E66.8372
G1 F900 X84.055 Y86.306 E66.86973
G1 X83.797 Y86.299 E66.88175
G1 X83.197 Y86.193 E66.91012
G1 X82.572 Y85.917 E66.94193
G1 X82.129 Y85.588 E66.96762
G1 X81.811 Y85.248 E66.9893
G1 X81.65 Y85.023 E67.00219
G1 X81.385 Y84.519 E67.0287
G1 X81.239 Y84.009 E67.0534
G1 X81.22 Y83.744 E67.06577
G1 X81.22 Y83.136 E67.09408
G1 X81.273 Y82.875 E67.10648
G1 X81.362 Y82.567 E67.12141
G1 X81.495 Y82.251 E67.13738
G1 X81.703 Y81.891 E67.15674
G1 X81.997 Y81.535 E67.17824
G1 X82.273 Y81.295 E67.19527
G1 X82.603 Y81.059 E67.21416
G1 X82.993 Y80.891 E67.23393
G1 X83.456 Y80.746 E67.25652
G1 X84.096 Y80.692 E67.28643
G1 X84.415 Y80.728 E67.30138
G1 X84.774 Y80.812 E67.31855
G1 X85.104 Y80.934 E67.33493
G1 X85.472 Y81.126 E67.35426
G1 X85.826 Y81.389 E67.37479
G1 X86.162 Y81.733 E67.39718
G1 X86.432 Y82.126 E67.41939
G1 X86.616 Y82.526 E67.43989
G1 X86.723 Y82.867 E67.45653
G1 X86.812 Y83.368 E67.48022
G1 X86.808 Y83.649 E67.49331
G1 X86.686 Y84.307 E67.52447
G1 X86.4 Y84.955 E67.55745
G1 X86.079 Y85.385 E67.58244
G1 X85.587 Y85.815 E67.61287
G1 X85.029 Y86.115 E67.64237
G1 X84.747 Y86.211 E67.65624
G0 F6000 X84.75 Y85.814
G1 F900 X83.927 Y85.918 E67.69486
G1 X83.315 Y85.808 E67.72382
G1 X82.765 Y85.564 E67.75183
G1 X82.384 Y85.279 E67.77399
G1 X82.037 Y84.901 E67.79788
G1 X81.751 Y84.352 E67.82671
G1 X81.62 Y83.886 E67.84925
G1 X81.62 Y83.118 E67.88501
G1 X81.78 Y82.559 E67.91208
G1 X82.05 Y82.091 E67.93724
G1 X82.259 Y81.837 E67.95256
G1 X82.535 Y81.597 E67.96959
G1 X82.983 Y81.313 E67.99429
G1 X83.54 Y81.139 E68.02146
G1 X84.182 Y81.085 E68.05146
G1 X84.684 Y81.202 E68.07546
G1 X84.919 Y81.289 E68.08713
G1 X85.287 Y81.481 E68.10646
G1 X85.54 Y81.669 E68.12114
G1 X85.876 Y82.013 E68.14353
G1 X86.069 Y82.294 E68.1594
G1 X86.253 Y82.694 E68.1799
G1 X86.329 Y82.937 E68.19176
G1 X86.413 Y83.413 E68.21427
G1 X86.398 Y83.667 E68.22611
G1 X86.303 Y84.188 E68.25077
G1 X86.061 Y84.743 E68.27897
G1 X85.778 Y85.118 E68.30084
G1 X85.359 Y85.482 E68.32669
G1 X84.75 Y85.814 E68.35898
G0 F6000 X84.641 Y85.418
G1 F900 X83.949 Y85.514 E68.39152
G1 X83.406 Y85.41 E68.41726
G1 X82.969 Y85.219 E68.43947
G1 X82.633 Y84.959 E68.45925
G1 X82.367 Y84.662 E68.47781
G1 X82.117 Y84.191 E68.50264
G1 X82.026 Y83.83 E68.51998
G1 X82.025 Y83.181 E68.5502
G1 X82.15 Y82.717 E68.57258
G1 X82.445 Y82.206 E68.60005
G1 X82.798 Y81.899 E68.62183
G1 X83.159 Y81.676 E68.64159
G1 X83.652 Y81.529 E68.66555
G1 X84.15 Y81.488 E68.68881
G1 X84.664 Y81.608 E68.71339
G1 X85.189 Y81.881 E68.74095
G1 X85.663 Y82.366 E68.77252
G1 X85.922 Y82.932 E68.80151
G1 X86.019 Y83.513 E68.82894
G1 X85.918 Y84.077 E68.85562
G1 X85.703 Y84.55 E68.87981
G1 X85.478 Y84.848 E68.8972
G1 X85.134 Y85.145 E68.91836
G1 X84.641 Y85.418 E68.9446
G1 F2700 E63.9446
G1 F300 Z0.48
G0 F6000 X150.18 Y86.188 Z0.48
G1 F300 Z0.28
G1 F2700 E68.9446
G1 F900 X149.429 Y85.829 E68.98336
G1 X148.926 Y85.399 E69.01417
G1 X148.75 Y85.185 E69.02708
G1 X148.446 Y84.668 E69.055
G1 X148.22 Y83.939 E69.09054
G1 X148.22 Y83.116 E69.12886
G1 X148.283 Y82.841 E69.142
G1 X148.39 Y82.493 E69.15895
G1 X148.563 Y82.131 E69.17764
G1 X148.794 Y81.783 E69.19709
G1 X149.009 Y81.532 E69.21247
G1 X149.277 Y81.284 E69.22948
G1 X149.694 Y81.017 E69.25253
G1 X150.082 Y80.857 E69.27208
G1 X150.374 Y80.772 E69.28624
G1 X150.872 Y80.695 E69.3097
G1 X151.337 Y80.723 E69.33139
G1 X151.614 Y80.77 E69.34448
G1 X151.874 Y80.842 E69.35704
G1 X152.217 Y80.989 E69.37441
G1 X152.613 Y81.225 E69.39588
G1 X152.887 Y81.437 E69.41201
G1 X153.074 Y81.626 E69.42439
G1 X153.268 Y81.868 E69.43883
G1 X153.508 Y82.248 E69.45976
G1 X153.636 Y82.505 E69.47313
G1 X153.702 Y82.748 E69.48486
G1 X153.795 Y83.267 E69.50941
G1 X153.774 Y83.95 E69.54123
G1 X153.547 Y84.681 E69.57687
G1 X153.257 Y85.155 E69.60274
G1 X152.881 Y85.584 E69.62931
G1 X152.46 Y85.882 E69.65332
G1 X152.238 Y86.008 E69.66521
G1 X151.765 Y86.2 E69.68898
G1 X151.512 Y86.264 E69.70113
G1 X150.826 Y86.303 E69.73313
G1 X150.18 Y86.188 E69.76368
G0 F6000 X150.308 Y85.802
G1 F900 X149.678 Y85.514 E69.79594
G1 X149.252 Y85.157 E69.82182
G1 X149.083 Y84.963 E69.8338
G1 X148.801 Y84.485 E69.85964
G1 X148.626 Y83.903 E69.88794
G1 X148.619 Y83.109 E69.92491
G1 X148.772 Y82.611 E69.94917
G1 X148.896 Y82.353 E69.9625
G1 X149.193 Y81.905 E69.98753
G1 X149.548 Y81.577 E70.01003
G1 X149.846 Y81.387 E70.02649
G1 X150.345 Y81.181 E70.05163
G1 X150.893 Y81.096 E70.07745
G1 X151.408 Y81.128 E70.10148
G1 X151.767 Y81.228 E70.11883
G1 X152.012 Y81.333 E70.13124
G1 X152.519 Y81.635 E70.15872
G1 X152.87 Y81.986 E70.18183
G1 X153.17 Y82.462 E70.20803
G1 X153.29 Y82.703 E70.22057
G1 X153.395 Y83.338 E70.25054
G1 X153.375 Y83.885 E70.27603
G1 X153.183 Y84.508 E70.30638
G1 X152.936 Y84.916 E70.32859
G1 X152.611 Y85.288 E70.35159
G1 X152.142 Y85.616 E70.37824
G1 X151.556 Y85.857 E70.40775
G1 X150.839 Y85.902 E70.4412
G1 X150.308 Y85.802 E70.46636
G0 F6000 X150.422 Y85.419
G1 F900 X149.887 Y85.168 E70.49388
G1 X149.45 Y84.798 E70.52054
G1 X149.172 Y84.329 E70.54593
G1 X149.023 Y83.838 E70.56982
G1 X149.025 Y83.171 E70.60088
G1 X149.177 Y82.652 E70.62606
G1 X149.5 Y82.167 E70.65319
G1 X149.898 Y81.799 E70.67843
G1 X150.459 Y81.567 E70.7067
G1 X150.952 Y81.5 E70.72987
G1 X151.343 Y81.525 E70.74811
G1 X151.738 Y81.634 E70.76719
G1 X152.268 Y81.95 E70.79592
G1 X152.556 Y82.238 E70.81489
G1 X152.895 Y82.775 E70.84446
G1 X152.996 Y83.361 E70.87215
G1 X152.971 Y83.824 E70.89374
G1 X152.829 Y84.304 E70.91705
G1 X152.619 Y84.678 E70.93702
G1 X152.349 Y84.976 E70.95575
G1 X151.955 Y85.259 E70.97833
G1 X151.437 Y85.468 E71.00434
G1 X150.874 Y85.496 E71.03059
G1 X150.422 Y85.419 E71.05194
G1 F2700 E66.05194
G1 F300 Z0.48
G0 F6000 X181.1 Y156.1 Z0.48
G1 F300 Z0.28
G1 F2700 E71.05194
G1 F900 X181.1 Y86.796 E74.27903
G1 X180.815 Y86.722 E74.29274
G1 X180.424 Y86.426 E74.31557
G1 X180.217 Y86.063 E74.33503
G1 X180.1 Y85.665 E74.35435
G1 X180.1 Y82.9 E74.4831
G1 X172.283 Y82.897 E74.84709
G1 X171.848 Y82.74 E74.86862
G1 X171.644 Y82.609 E74.87991
G1 X171.333 Y82.275 E74.90116
G1 X171.137 Y81.889 E74.92132
G1 X171.1 Y81.5 E74.93952
G1 X171.1 Y78.9 E75.06058
G1 X63.9 Y78.9 E80.05226
G1 X63.9 Y81.5 E80.17333
G1 X63.874 Y81.771 E80.18601
G1 X63.742 Y82.147 E80.20456
G1 X63.532 Y82.471 E80.22254
G1 X63.231 Y82.695 E80.24001
G1 X62.943 Y82.829 E80.25481
G1 X62.605 Y82.897 E80.27086
G1 X54.9 Y82.9 E80.62964
G1 X54.9 Y85.665 E80.75839
G1 X54.783 Y86.063 E80.7777
G1 X54.576 Y86.426 E80.79716
G1 X54.185 Y86.722 E80.82
