;FLAVOR:Marlin
;TIME:5415
;Filament used: 7.38834m
;Layer height: 0.28
;MINX:41.5
;MINY:66.5
;MINZ:0.28
;MAXX:193.5
;MAXY:168.5
;MAXZ:1.68
;TARGET_MACHINE.NAME:Creality Ender-3
;Generated with Cura_SteamEngine 5.7.1
M140 S70
M105
M190 S70
M104 S240
M105
M109 S240
M82 ;absolute extrusion mode
; Ender 3 Custom Start G-code
G92 E0 ; Reset Extruder
G28 ; Home all axes
G1 Z2.0 F3000 ; Move Z Axis up little to prevent scratching of Heat Bed
G1 X0.1 Y20 Z0.3 F5000.0 ; Move to start position
G1 X0.1 Y200.0 Z0.3 F1500.0 E15 ; Draw the first line
G1 X0.4 Y200.0 Z0.3 F5000.0 ; Move to side a little
G1 X0.4 Y20 Z0.3 F1500.0 E30 ; Draw the second line
G92 E0 ; Reset Extruder
G1 Z2.0 F3000 ; Move Z Axis up little to prevent scratching of Heat Bed
G1 X5 Y20 Z0.3 F5000.0 ; Move over to prevent blob squish
G92 E0
G92 E0
G1 F2700 E-5
;LAYER_COUNT:6
;LAYER:0
M107
G0 F6000 X46.424 Y68.346 Z0.28
;TYPE:SKIRT
G1 F2700 E0
G1 F900 X47.321 Y67.811 E0.04863
G1 X48.199 Y67.39 E0.09397
G1 X49.112 Y67.048 E0.13937
G1 X50.049 Y66.789 E0.18464
G1 X51.016 Y66.611 E0.23042
G1 X52.155 Y66.515 E0.28365
G1 X52.812 Y66.5 E0.31425
G1 X181.804 Y66.5 E6.32066
G1 X182.684 Y66.513 E6.36164
G1 X183.656 Y66.572 E6.40698
G1 X184.619 Y66.718 E6.45233
G1 X185.566 Y66.949 E6.49772
G1 X186.454 Y67.249 E6.54137
G1 X187.346 Y67.639 E6.5867
G1 X188.229 Y68.126 E6.63365
G1 X188.98 Y68.628 E6.67572
G1 X189.795 Y69.286 E6.72449
G1 X190.493 Y69.964 E6.7698
G1 X191.129 Y70.701 E6.81513
G1 X191.699 Y71.491 E6.86049
G1 X192.161 Y72.267 E6.90255
G1 X192.615 Y73.209 E6.95124
G1 X192.944 Y74.087 E6.9949
G1 X193.213 Y75.059 E7.04186
G1 X193.39 Y76.025 E7.08759
G1 X193.485 Y77.155 E7.14039
G1 X193.5 Y77.83 E7.17183
G1 X193.499 Y156.9 E10.85366
G1 X193.488 Y157.663 E10.88919
G1 X193.431 Y158.636 E10.93458
G1 X193.286 Y159.599 E10.97992
G1 X193.057 Y160.545 E11.02525
G1 X192.746 Y161.469 E11.07064
G1 X192.354 Y162.36 E11.11597
G1 X191.886 Y163.212 E11.16123
G1 X191.364 Y163.993 E11.20498
G1 X190.731 Y164.778 E11.25193
G1 X190.106 Y165.429 E11.29395
G1 X189.317 Y166.117 E11.3427
G1 X188.557 Y166.667 E11.38638
G1 X187.69 Y167.184 E11.43339
G1 X186.812 Y167.606 E11.47875
G1 X185.901 Y167.948 E11.52406
G1 X184.962 Y168.209 E11.56944
G1 X183.996 Y168.387 E11.61518
G1 X182.845 Y168.485 E11.66897
G1 X182.17 Y168.5 E11.70041
G1 X53.064 Y168.499 E17.71212
G1 X52.331 Y168.488 E17.74626
G1 X51.359 Y168.431 E17.7916
G1 X50.396 Y168.285 E17.83695
G1 X49.45 Y168.056 E17.88227
G1 X48.526 Y167.744 E17.92768
G1 X47.636 Y167.352 E17.97297
G1 X46.813 Y166.901 E18.01667
G1 X45.974 Y166.34 E18.06366
G1 X45.27 Y165.774 E18.10572
G1 X44.517 Y165.049 E18.1544
G1 X43.88 Y164.313 E18.19972
G1 X43.35 Y163.582 E18.24177
G1 X42.814 Y162.685 E18.29042
G1 X42.392 Y161.807 E18.33578
G1 X42.05 Y160.895 E18.38114
G1 X41.79 Y159.957 E18.42646
G1 X41.612 Y158.988 E18.47234
G1 X41.514 Y157.809 E18.52743
G1 X41.5 Y157.158 E18.55775
G1 X41.501 Y78.025 E22.24251
G1 X41.512 Y77.325 E22.27511
G1 X41.57 Y76.352 E22.3205
G1 X41.716 Y75.389 E22.36585
G1 X41.946 Y74.443 E22.41118
G1 X42.259 Y73.52 E22.45657
G1 X42.651 Y72.63 E22.50185
G1 X43.121 Y71.777 E22.5472
G1 X43.664 Y70.969 E22.59253
G1 X44.231 Y70.265 E22.63462
G1 X44.956 Y69.513 E22.68326
G1 X45.692 Y68.876 E22.72858
G1 X46.424 Y68.346 E22.77067
G0 F6000 X46.659 Y68.67
G1 F900 X47.495 Y68.171 E22.816
G1 X48.34 Y67.764 E22.85967
G1 X49.219 Y67.433 E22.90341
G1 X50.122 Y67.182 E22.94705
G1 X51.05 Y67.01 E22.991
G1 X52.189 Y66.914 E23.04422
G1 X52.821 Y66.9 E23.07366
G1 X181.798 Y66.9 E29.07937
G1 X182.66 Y66.912 E29.11951
G1 X183.597 Y66.968 E29.16322
G1 X184.525 Y67.107 E29.20691
G1 X185.438 Y67.328 E29.25065
G1 X186.294 Y67.616 E29.29271
G1 X187.186 Y68.006 E29.33804
G1 X188.007 Y68.459 E29.3817
G1 X188.758 Y68.961 E29.42377
G1 X189.517 Y69.573 E29.46917
G1 X190.191 Y70.226 E29.51286
G1 X190.805 Y70.935 E29.55654
G1 X191.355 Y71.696 E29.60026
G1 X191.817 Y72.472 E29.64231
G1 X192.24 Y73.349 E29.68765
G1 X192.569 Y74.227 E29.73131
G1 X192.82 Y75.132 E29.77504
G1 X192.991 Y76.059 E29.81893
G1 X193.086 Y77.189 E29.87174
G1 X193.1 Y77.83 E29.90159
G1 X193.099 Y156.895 E33.58319
G1 X193.089 Y157.64 E33.61788
G1 X193.035 Y158.577 E33.66159
G1 X192.897 Y159.506 E33.70532
G1 X192.678 Y160.418 E33.74899
G1 X192.38 Y161.308 E33.7927
G1 X192.003 Y162.168 E33.83642
G1 X191.553 Y162.99 E33.88006
G1 X191.031 Y163.771 E33.9238
G1 X190.442 Y164.501 E33.96747
G1 X189.817 Y165.152 E34.0095
G1 X189.082 Y165.793 E34.05491
G1 X188.322 Y166.343 E34.09859
G1 X187.516 Y166.824 E34.1423
G1 X186.671 Y167.232 E34.18599
G1 X185.793 Y167.563 E34.22968
G1 X184.889 Y167.816 E34.27339
G1 X183.962 Y167.988 E34.3173
G1 X182.811 Y168.086 E34.37108
G1 X182.17 Y168.1 E34.40094
G1 X53.07 Y168.099 E40.41238
G1 X52.354 Y168.089 E40.44572
G1 X51.418 Y168.035 E40.48938
G1 X50.489 Y167.896 E40.53312
G1 X49.577 Y167.677 E40.57679
G1 X48.687 Y167.378 E40.62051
G1 X47.828 Y167.001 E40.66419
G1 X47.005 Y166.55 E40.70789
G1 X46.225 Y166.028 E40.75159
G1 X45.521 Y165.462 E40.79365
G1 X44.819 Y164.787 E40.839
G1 X44.204 Y164.078 E40.8827
G1 X43.674 Y163.347 E40.92475
G1 X43.174 Y162.511 E40.97011
G1 X42.766 Y161.666 E41.0138
G1 X42.435 Y160.788 E41.05749
G1 X42.183 Y159.884 E41.10119
G1 X42.011 Y158.955 E41.14518
G1 X41.913 Y157.776 E41.20027
G1 X41.9 Y157.158 E41.22906
G1 X41.901 Y78.031 E44.91354
G1 X41.911 Y77.348 E44.94535
G1 X41.966 Y76.411 E44.98905
G1 X42.105 Y75.483 E45.03275
G1 X42.325 Y74.571 E45.07643
G1 X42.625 Y73.681 E45.12016
G1 X43.002 Y72.822 E45.16385
G1 X43.453 Y72 E45.2075
G1 X43.976 Y71.22 E45.25123
G1 X44.543 Y70.516 E45.29332
G1 X45.218 Y69.815 E45.33864
G1 X45.927 Y69.2 E45.38234
G1 X46.659 Y68.67 E45.42442
G0 F6000 X46.894 Y68.994
G1 F900 X47.669 Y68.531 E45.46646
G1 X48.482 Y68.138 E45.50851
G1 X49.327 Y67.818 E45.55058
G1 X50.196 Y67.575 E45.5926
G1 X51.084 Y67.409 E45.63466
G1 X52.223 Y67.313 E45.68789
G1 X52.83 Y67.3 E45.71616
G1 X181.793 Y67.3 E51.72122
G1 X182.637 Y67.311 E51.76052
G1 X183.539 Y67.364 E51.80259
G1 X184.432 Y67.496 E51.84463
G1 X185.31 Y67.707 E51.88667
G1 X186.166 Y67.995 E51.92873
G1 X186.993 Y68.357 E51.97076
G1 X187.785 Y68.792 E52.01284
G1 X188.536 Y69.294 E52.0549
G1 X189.239 Y69.861 E52.09696
G1 X189.889 Y70.488 E52.13901
G1 X190.481 Y71.17 E52.18106
G1 X191.011 Y71.901 E52.22311
G1 X191.473 Y72.677 E52.26516
G1 X191.866 Y73.49 E52.30721
G1 X192.184 Y74.335 E52.34925
G1 X192.427 Y75.205 E52.39131
G1 X192.592 Y76.093 E52.43337
G1 X192.687 Y77.223 E52.48617
G1 X192.7 Y77.83 E52.51444
G1 X192.699 Y156.89 E56.19581
G1 X192.69 Y157.617 E56.22966
G1 X192.639 Y158.519 E56.27173
G1 X192.508 Y159.413 E56.3138
G1 X192.299 Y160.291 E56.35583
G1 X192.013 Y161.148 E56.3979
G1 X191.652 Y161.976 E56.43996
G1 X191.22 Y162.768 E56.48196
G1 X190.719 Y163.52 E56.52404
G1 X190.153 Y164.224 E56.5661
G1 X189.528 Y164.875 E56.60812
G1 X188.847 Y165.469 E56.6502
G1 X188.116 Y166 E56.69227
G1 X187.342 Y166.464 E56.73429
G1 X186.529 Y166.858 E56.77636
G1 X185.685 Y167.178 E56.81839
G1 X184.815 Y167.423 E56.86048
G1 X183.928 Y167.589 E56.9025
G1 X182.777 Y167.687 E56.95629
G1 X182.17 Y167.7 E56.98456
G1 X53.075 Y167.699 E62.99576
G1 X52.377 Y167.69 E63.02827
G1 X51.476 Y167.639 E63.07029
G1 X50.582 Y167.507 E63.11237
G1 X49.704 Y167.298 E63.15439
G1 X48.847 Y167.011 E63.19648
G1 X48.02 Y166.65 E63.23849
G1 X47.227 Y166.217 E63.28057
G1 X46.476 Y165.716 E63.3226
G1 X45.772 Y165.15 E63.36466
G1 X45.121 Y164.524 E63.40672
G1 X44.528 Y163.843 E63.44877
G1 X43.998 Y163.112 E63.49081
G1 X43.534 Y162.337 E63.53287
G1 X43.14 Y161.524 E63.57494
G1 X42.82 Y160.68 E63.61697
G1 X42.576 Y159.81 E63.65904
G1 X42.41 Y158.922 E63.70111
G1 X42.313 Y157.767 E63.75508
G1 X42.3 Y157.158 E63.78344
G1 X42.301 Y78.036 E67.4677
G1 X42.31 Y77.371 E67.49866
G1 X42.362 Y76.469 E67.54073
G1 X42.494 Y75.576 E67.58277
G1 X42.704 Y74.698 E67.6248
G1 X42.991 Y73.841 E67.66689
G1 X43.353 Y73.014 E67.70892
G1 X43.786 Y72.222 E67.75095
G1 X44.288 Y71.471 E67.79302
G1 X44.855 Y70.767 E67.83511
G1 X45.481 Y70.117 E67.87713
G1 X46.162 Y69.524 E67.91918
G1 X46.894 Y68.994 E67.96126
G1 F2700 E62.96126
;MESH:3x5_divider.stl
G0 F6000 X51.835 Y79.1
G0 X54.1 Y79.1
G0 X54.072 Y155.928
G0 X181.1 Y156.1
;TYPE:WALL-INNER
G1 F2700 E67.96126
G1 F900 X181.1 Y78.9 E71.55601
G1 X53.9 Y78.9 E77.47898
G1 X53.9 Y156.1 E81.07373
G1 X181.1 Y156.1 E86.9967
G0 F6000 X181.5 Y156.5
G1 F900 X181.5 Y78.5 E90.62871
G1 X53.5 Y78.5 E96.58892
G1 X53.5 Y156.5 E100.22093
G1 X181.5 Y156.5 E106.18114
G0 F6000 X181.9 Y156.9
G1 F900 X181.9 Y78.1 E109.8504
G1 X53.1 Y78.1 E115.84787
G1 X53.1 Y156.9 E119.51713
G1 X181.9 Y156.9 E125.5146
G0 F6000 X182.3 Y157.3
;TYPE:WALL-OUTER
G1 F900 X182.3 Y77.7 E129.22111
G1 X52.7 Y77.7 E135.25582
G1 X52.7 Y157.3 E138.96233
G1 X182.3 Y157.3 E144.99705
G0 F6000 X182.03 Y157.03
G0 X181 Y155.74
G0 X180.74 Y155.74
;TYPE:SKIN
G1 F900 X54.26 Y155.74 E150.88649
G1 X54.26 Y79.26 E154.44772
G1 X180.74 Y79.26 E160.33716
G1 X180.74 Y155.74 E163.89839
G1 F2700 E158.89839
G0 F6000 X181 Y155.74
G0 X180.928 Y79.072
G0 X180.152 Y79
G0 X180.152 Y79.46
G1 F2700 E163.89839
G1 F900 X180.54 Y79.848 E163.92394
G0 F6000 X180.54 Y80.414
G1 F900 X179.587 Y79.46 E163.98673
G0 F6000 X179.021 Y79.46
G1 F900 X180.54 Y80.979 E164.08676
G0 F6000 X180.54 Y81.545
G1 F900 X178.455 Y79.46 E164.22406
G0 F6000 X177.89 Y79.46
G1 F900 X180.54 Y82.111 E164.3986
G0 F6000 X180.54 Y82.676
G1 F900 X177.324 Y79.46 E164.61038
G0 F6000 X176.758 Y79.46
G1 F900 X180.54 Y83.242 E164.85943
G0 F6000 X180.54 Y83.808
G1 F900 X176.193 Y79.46 E165.14572
G0 F6000 X175.627 Y79.46
G1 F900 X180.54 Y84.373 E165.46925
G0 F6000 X180.54 Y84.939
G1 F900 X175.061 Y79.46 E165.83005
G0 F6000 X174.496 Y79.46
G1 F900 X180.54 Y85.505 E166.22809
G0 F6000 X180.54 Y86.07
G1 F900 X173.93 Y79.46 E166.66337
G0 F6000 X173.364 Y79.46
G1 F900 X180.54 Y86.636 E167.13592
G0 F6000 X180.54 Y87.202
G1 F900 X172.799 Y79.46 E167.64571
G0 F6000 X172.233 Y79.46
G1 F900 X180.54 Y87.768 E168.19278
G0 F6000 X180.54 Y88.333
G1 F900 X171.667 Y79.46 E168.77708
G0 F6000 X171.101 Y79.46
G1 F900 X180.54 Y88.899 E169.39865
G0 F6000 X180.54 Y89.465
G1 F900 X170.536 Y79.46 E170.05747
G0 F6000 X169.97 Y79.46
G1 F900 X180.54 Y90.03 E170.75352
G0 F6000 X180.54 Y90.596
G1 F900 X169.404 Y79.46 E171.48684
G0 F6000 X168.839 Y79.46
G1 F900 X180.54 Y91.162 E172.25741
G0 F6000 X180.54 Y91.727
G1 F900 X168.273 Y79.46 E173.06521
G0 F6000 X167.707 Y79.46
G1 F900 X180.54 Y92.293 E173.91028
G0 F6000 X180.54 Y92.859
G1 F900 X167.142 Y79.46 E174.7926
G0 F6000 X166.576 Y79.46
G1 F900 X180.54 Y93.424 E175.71215
G0 F6000 X180.54 Y93.99
G1 F900 X166.01 Y79.46 E176.66898
G0 F6000 X165.445 Y79.46
G1 F900 X180.54 Y94.556 E177.66304
G0 F6000 X180.54 Y95.121
G1 F900 X164.879 Y79.46 E178.69435
G0 F6000 X164.313 Y79.46
G1 F900 X180.54 Y95.687 E179.76292
G0 F6000 X180.54 Y96.253
G1 F900 X163.748 Y79.46 E180.86874
G0 F6000 X163.182 Y79.46
G1 F900 X180.54 Y96.818 E182.01179
G0 F6000 X180.54 Y97.384
G1 F900 X162.616 Y79.46 E183.19212
G0 F6000 X162.05 Y79.46
G1 F900 X180.54 Y97.95 E184.40971
G0 F6000 X180.54 Y98.516
G1 F900 X161.485 Y79.46 E185.66455
G0 F6000 X160.919 Y79.46
G1 F900 X180.54 Y99.081 E186.95663
G0 F6000 X180.54 Y99.647
G1 F900 X160.353 Y79.46 E188.28598
G0 F6000 X159.788 Y79.46
G1 F900 X180.54 Y100.213 E189.65256
G0 F6000 X180.54 Y100.778
G1 F900 X159.222 Y79.46 E191.05639
G0 F6000 X158.656 Y79.46
G1 F900 X180.54 Y101.344 E192.49749
G0 F6000 X180.54 Y101.91
G1 F900 X158.091 Y79.46 E193.97583
G0 F6000 X157.525 Y79.46
G1 F900 X180.54 Y102.475 E195.4914
G0 F6000 X180.54 Y103.041
G1 F900 X156.959 Y79.46 E197.04425
G0 F6000 X156.394 Y79.46
G1 F900 X180.54 Y103.607 E198.63434
G0 F6000 X180.54 Y104.172
G1 F900 X155.828 Y79.46 E200.26167
G0 F6000 X155.262 Y79.46
G1 F900 X180.54 Y104.738 E201.92627
G0 F6000 X180.54 Y105.304
G1 F900 X154.697 Y79.46 E203.62811
G0 F6000 X154.131 Y79.46
G1 F900 X180.54 Y105.869 E205.36718
G0 F6000 X180.54 Y106.435
G1 F900 X153.565 Y79.46 E207.14353
G0 F6000 X153 Y79.46
G1 F900 X180.54 Y107.001 E208.95712
G0 F6000 X180.54 Y107.566
G1 F900 X152.434 Y79.46 E210.80795
G0 F6000 X151.868 Y79.46
G1 F900 X180.54 Y108.132 E212.69605
G0 F6000 X180.54 Y108.698
G1 F900 X151.302 Y79.46 E214.62142
G0 F6000 X150.737 Y79.46
G1 F900 X180.54 Y109.264 E216.58403
G0 F6000 X180.54 Y109.829
G1 F900 X150.171 Y79.46 E218.58389
G0 F6000 X149.605 Y79.46
G1 F900 X180.54 Y110.395 E220.62101
G0 F6000 X180.54 Y110.961
G1 F900 X149.04 Y79.46 E222.69537
G0 F6000 X148.474 Y79.46
G1 F900 X180.54 Y111.526 E224.80697
G0 F6000 X180.54 Y112.092
G1 F900 X147.908 Y79.46 E226.95584
G0 F6000 X147.343 Y79.46
G1 F900 X180.54 Y112.658 E229.14196
G0 F6000 X180.54 Y113.223
G1 F900 X146.777 Y79.46 E231.36531
G0 F6000 X146.211 Y79.46
G1 F900 X180.54 Y113.789 E233.62593
G0 F6000 X180.54 Y114.355
G1 F900 X145.646 Y79.46 E235.92379
G0 F6000 X145.08 Y79.46
G1 F900 X180.54 Y114.92 E238.25889
G0 F6000 X180.54 Y115.486
G1 F900 X144.514 Y79.46 E240.63127
G0 F6000 X143.949 Y79.46
G1 F900 X180.54 Y116.052 E243.04088
G0 F6000 X180.54 Y116.617
G1 F900 X143.383 Y79.46 E245.48773
G0 F6000 X142.817 Y79.46
G1 F900 X180.54 Y117.183 E247.97186
G0 F6000 X180.54 Y117.749
G1 F900 X142.251 Y79.46 E250.49325
G0 F6000 X141.686 Y79.46
G1 F900 X180.54 Y118.315 E253.05189
G0 F6000 X180.54 Y118.88
G1 F900 X141.12 Y79.46 E255.64776
G0 F6000 X140.554 Y79.46
G1 F900 X180.54 Y119.446 E258.28091
G0 F6000 X180.54 Y120.012
G1 F900 X139.989 Y79.46 E260.95129
G0 F6000 X139.423 Y79.46
G1 F900 X180.54 Y120.577 E263.65892
G0 F6000 X180.54 Y121.143
G1 F900 X138.857 Y79.46 E266.40381
G0 F6000 X138.292 Y79.46
G1 F900 X180.54 Y121.709 E269.18595
G0 F6000 X180.54 Y122.274
G1 F900 X137.726 Y79.46 E272.00533
G0 F6000 X137.16 Y79.46
G1 F900 X180.54 Y122.84 E274.86197
G0 F6000 X180.54 Y123.406
G1 F900 X136.595 Y79.46 E277.75586
G0 F6000 X136.029 Y79.46
G1 F900 X180.54 Y123.971 E280.68698
G0 F6000 X180.54 Y124.537
G1 F900 X135.463 Y79.46 E283.65538
G0 F6000 X134.898 Y79.46
G1 F900 X180.54 Y125.103 E286.66102
G0 F6000 X180.54 Y125.668
G1 F900 X134.332 Y79.46 E289.70389
G0 F6000 X133.766 Y79.46
G1 F900 X180.54 Y126.234 E292.78404
G0 F6000 X180.54 Y126.8
G1 F900 X133.201 Y79.46 E295.90143
G0 F6000 X132.635 Y79.46
G1 F900 X180.54 Y127.365 E299.05605
G0 F6000 X180.54 Y127.931
G1 F900 X132.069 Y79.46 E302.24795
G0 F6000 X131.503 Y79.46
G1 F900 X180.54 Y128.497 E305.47712
G0 F6000 X180.54 Y129.063
G1 F900 X130.938 Y79.46 E308.74353
G0 F6000 X130.372 Y79.46
G1 F900 X180.54 Y129.628 E312.04718
G0 F6000 X180.54 Y130.194
G1 F900 X129.806 Y79.46 E315.3881
G0 F6000 X129.241 Y79.46
G1 F900 X180.54 Y130.76 E318.76626
G0 F6000 X180.54 Y131.325
G1 F900 X128.675 Y79.46 E322.18166
G0 F6000 X128.109 Y79.46
G1 F900 X180.54 Y131.891 E325.63433
G0 F6000 X180.54 Y132.457
G1 F900 X127.544 Y79.46 E329.12424
G0 F6000 X126.978 Y79.46
G1 F900 X180.54 Y133.022 E332.65139
G0 F6000 X180.54 Y133.588
G1 F900 X126.412 Y79.46 E336.21581
G0 F6000 X125.847 Y79.46
G1 F900 X180.54 Y134.154 E339.81747
G0 F6000 X180.54 Y134.719
G1 F900 X125.281 Y79.46 E343.45637
G0 F6000 X124.715 Y79.46
G1 F900 X180.54 Y135.285 E347.13254
G0 F6000 X180.54 Y135.851
G1 F900 X124.15 Y79.46 E350.84595
G0 F6000 X123.584 Y79.46
G1 F900 X180.54 Y136.416 E354.5966
G0 F6000 X180.54 Y136.982
G1 F900 X123.018 Y79.46 E358.38453
G0 F6000 X122.453 Y79.46
G1 F900 X180.54 Y137.548 E362.20969
G0 F6000 X180.54 Y138.114
G1 F900 X121.887 Y79.46 E366.07212
G0 F6000 X121.321 Y79.46
G1 F900 X180.54 Y138.679 E369.97179
G0 F6000 X180.54 Y139.245
G1 F900 X120.755 Y79.46 E373.90874
G0 F6000 X120.19 Y79.46
G1 F900 X180.54 Y139.811 E377.88292
G0 F6000 X180.54 Y140.376
G1 F900 X119.624 Y79.46 E381.89434
G0 F6000 X119.058 Y79.46
G1 F900 X180.54 Y140.942 E385.94304
G0 F6000 X180.54 Y141.508
G1 F900 X118.493 Y79.46 E390.02897
G0 F6000 X117.927 Y79.46
G1 F900 X180.54 Y142.073 E394.15214
G0 F6000 X180.54 Y142.639
G1 F900 X117.361 Y79.46 E398.31259
G0 F6000 X116.796 Y79.46
G1 F900 X180.54 Y143.205 E402.51027
G0 F6000 X180.54 Y143.77
G1 F900 X116.23 Y79.46 E406.7452
G0 F6000 X115.664 Y79.46
G1 F900 X180.54 Y144.336 E411.01739
G0 F6000 X180.54 Y144.902
G1 F900 X115.099 Y79.46 E415.32683
