;FLAVOR:Marlin
;TIME:10578
;Filament used: 13.2915m
;Layer height: 0.28
;MINX:0
;MINY:39.5
;MINZ:0.28
;MAXX:235
;MAXY:195.5
;MAXZ:12.04
;TARGET_MACHINE.NAME:Creality Ender-3
;Generated with Cura_SteamEngine 5.7.1
M140 S70
M105
M190 S70
M104 S240
M105
M109 S240
M82 ;absolute extrusion mode
; Ender 3 Custom Start G-code
G92 E0 ; Reset Extruder
G28 ; Home all axes
G1 Z2.0 F3000 ; Move Z Axis up little to prevent scratching of Heat Bed
G1 X0.1 Y20 Z0.3 F5000.0 ; Move to start position
G1 X0.1 Y200.0 Z0.3 F1500.0 E15 ; Draw the first line
G1 X0.4 Y200.0 Z0.3 F5000.0 ; Move to side a little
G1 X0.4 Y20 Z0.3 F1500.0 E30 ; Draw the second line
G92 E0 ; Reset Extruder
G1 Z2.0 F3000 ; Move Z Axis up little to prevent scratching of Heat Bed
G1 X5 Y20 Z0.3 F5000.0 ; Move over to prevent blob squish
G92 E0
G92 E0
G1 F2700 E-5
;LAYER_COUNT:43
;LAYER:0
M107
G0 F6000 X0.00 Y42.991 Z0.28
;TYPE:SKIRT
G1 F2700 E0
G1 F900 X0.456 Y42.513 E0.03076
G1 X1.192 Y41.876 E0.07609
G1 X1.924 Y41.346 E0.11817
G1 X2.821 Y40.811 E0.1668
G1 X3.699 Y40.39 E0.21214
G1 X4.612 Y40.048 E0.25754
G1 X5.549 Y39.789 E0.30281
G1 X6.516 Y39.611 E0.34859
G1 X7.655 Y39.515 E0.40181
G1 X8.312 Y39.5 E0.43241
G1 X226.304 Y39.5 E10.58304
G1 X227.184 Y39.513 E10.62402
G1 X228.156 Y39.572 E10.66936
G1 X229.119 Y39.718 E10.71471
G1 X230.066 Y39.949 E10.7601
G1 X230.954 Y40.249 E10.80375
G1 X231.846 Y40.639 E10.84908
G1 X232.729 Y41.126 E10.89603
G1 X233.48 Y41.628 E10.9381
G1 X234.295 Y42.286 E10.98687
G1 X235 Y42.972 E11.03268
G0 F6000 X235 Y43.585
G1 F900 X234.691 Y43.226 E11.05473
G1 X234.017 Y42.573 E11.09843
G1 X233.258 Y41.961 E11.14383
G1 X232.507 Y41.459 E11.18589
G1 X231.686 Y41.006 E11.22956
G1 X230.794 Y40.616 E11.27489
G1 X229.938 Y40.328 E11.31694
G1 X229.025 Y40.107 E11.36068
G1 X228.097 Y39.968 E11.40438
G1 X227.16 Y39.912 E11.44808
G1 X226.298 Y39.9 E11.48823
G1 X8.321 Y39.9 E21.63815
G1 X7.689 Y39.914 E21.66758
G1 X6.55 Y40.01 E21.72081
G1 X5.622 Y40.182 E21.76476
G1 X4.719 Y40.433 E21.8084
G1 X3.84 Y40.764 E21.85213
G1 X2.995 Y41.171 E21.89581
G1 X2.159 Y41.67 E21.94114
G1 X1.427 Y42.2 E21.98322
G1 X0.718 Y42.815 E22.02693
G1 X0.00 Y43.569 E22.07541
G0 F6000 X0.00 Y44.208
G1 F900 X0.355 Y43.767 E22.10177
G1 X0.981 Y43.117 E22.14379
G1 X1.662 Y42.524 E22.18584
G1 X2.394 Y41.994 E22.22792
G1 X3.169 Y41.531 E22.26996
G1 X3.982 Y41.138 E22.312
G1 X4.827 Y40.818 E22.35408
G1 X5.696 Y40.575 E22.39609
G1 X6.584 Y40.409 E22.43816
G1 X7.723 Y40.313 E22.49138
G1 X8.33 Y40.3 E22.51966
G1 X226.293 Y40.3 E32.66893
G1 X227.137 Y40.311 E32.70823
G1 X228.039 Y40.364 E32.7503
G1 X228.932 Y40.496 E32.79234
G1 X229.81 Y40.707 E32.83438
G1 X230.666 Y40.995 E32.87644
G1 X231.493 Y41.357 E32.91847
G1 X232.285 Y41.792 E32.96055
G1 X233.036 Y42.294 E33.00261
G1 X233.739 Y42.861 E33.04467
G1 X234.389 Y43.488 E33.08672
G1 X235 Y44.196 E33.13027
G1 F2700 E28.13027
G0 F6000 X235 Y192.019
G1 F2700 E33.13027
G1 F900 X234.606 Y192.429 E33.15674
G1 X233.817 Y193.117 E33.20549
G1 X233.057 Y193.667 E33.24917
G1 X232.19 Y194.184 E33.29618
G1 X231.312 Y194.606 E33.34154
G1 X230.401 Y194.948 E33.38685
G1 X229.462 Y195.209 E33.43223
G1 X228.496 Y195.387 E33.47797
G1 X227.345 Y195.485 E33.53176
G1 X226.67 Y195.5 E33.5632
G1 X8.564 Y195.499 E43.71912
G1 X7.831 Y195.488 E43.75326
G1 X6.859 Y195.431 E43.7986
G1 X5.896 Y195.285 E43.84395
G1 X4.95 Y195.056 E43.88927
G1 X4.026 Y194.744 E43.93469
G1 X3.136 Y194.352 E43.97997
G1 X2.313 Y193.901 E44.02367
G1 X1.474 Y193.34 E44.07067
G1 X0.77 Y192.774 E44.11273
G1 X0.00 Y192.03 E44.16258
G0 F6000 X0.00 Y191.421
G1 F900 X0.319 Y191.787 E44.18519
G1 X1.021 Y192.462 E44.23054
G1 X1.725 Y193.028 E44.2726
G1 X2.505 Y193.55 E44.3163
G1 X3.328 Y194.001 E44.36
G1 X4.187 Y194.378 E44.40368
G1 X5.077 Y194.677 E44.4474
G1 X5.989 Y194.896 E44.49108
G1 X6.918 Y195.035 E44.53482
G1 X7.854 Y195.089 E44.57847
G1 X8.57 Y195.099 E44.61182
G1 X226.67 Y195.1 E54.76747
G1 X227.311 Y195.086 E54.79732
G1 X228.462 Y194.988 E54.85111
G1 X229.389 Y194.816 E54.89501
G1 X230.293 Y194.563 E54.93872
G1 X231.171 Y194.232 E54.98242
G1 X232.016 Y193.824 E55.02611
G1 X232.822 Y193.343 E55.06981
G1 X233.582 Y192.793 E55.1135
G1 X234.317 Y192.152 E55.15891
G1 X234.942 Y191.501 E55.20093
G1 X235 Y191.429 E55.20524
G0 F6000 X235 Y190.792
G1 F900 X234.653 Y191.224 E55.23104
G1 X234.028 Y191.875 E55.27306
G1 X233.347 Y192.469 E55.31514
G1 X232.616 Y193 E55.35721
G1 X231.842 Y193.464 E55.39923
G1 X231.029 Y193.858 E55.4413
G1 X230.185 Y194.178 E55.48333
G1 X229.315 Y194.423 E55.52541
G1 X228.428 Y194.589 E55.56743
G1 X227.277 Y194.687 E55.62122
G1 X226.67 Y194.7 E55.64949
G1 X8.575 Y194.699 E65.80491
G1 X7.877 Y194.69 E65.83742
G1 X6.976 Y194.639 E65.87944
G1 X6.082 Y194.507 E65.92152
G1 X5.204 Y194.298 E65.96354
G1 X4.347 Y194.011 E66.00563
G1 X3.52 Y193.65 E66.04764
G1 X2.727 Y193.217 E66.08972
G1 X1.976 Y192.716 E66.13175
G1 X1.272 Y192.15 E66.17381
G1 X0.621 Y191.524 E66.21587
G1 X0.00 Y190.804 E66.26014
G1 F2700 E61.26014
;MESH:3x5_trey.stl
G0 F6000 X12.001 Y174.081
G0 X223 Y173.9
;TYPE:WALL-INNER
G1 F2700 E66.26014
G1 F900 X12 Y173.9 E76.08519
G1 X11.692 Y173.866 E76.09961
G1 X11.341 Y173.736 E76.11704
G1 X10.986 Y173.466 E76.13781
G1 X10.707 Y173.039 E76.16156
G1 X10.6 Y172.674 E76.17927
G1 X10.6 Y62.5 E81.30944
G1 X10.707 Y61.961 E81.33503
G1 X10.986 Y61.534 E81.35878
G1 X11.341 Y61.264 E81.37954
G1 X11.692 Y61.134 E81.39697
G1 X12 Y61.1 E81.4114
G1 X223 Y61.1 E91.23645
G1 X223.308 Y61.134 E91.25087
G1 X223.659 Y61.264 E91.2683
G1 X224.014 Y61.534 E91.28907
G1 X224.293 Y61.961 E91.31282
G1 X224.4 Y62.5 E91.33841
G1 X224.4 Y172.674 E96.46857
G1 X224.293 Y173.039 E96.48628
G1 X224.014 Y173.466 E96.51004
G1 X223.659 Y173.736 E96.5308
G1 X223.308 Y173.866 E96.54823
G1 X223 Y173.9 E96.56266
G0 F6000 X223.155 Y173.5
G1 F900 X11.845 Y173.5 E106.40214
G1 X11.529 Y173.383 E106.41783
G1 X11.275 Y173.19 E106.43269
G1 X11.076 Y172.885 E106.44964
G1 X11 Y172.625 E106.46226
G1 X11 Y62.5 E111.59014
G1 X11.076 Y62.115 E111.60841
G1 X11.275 Y61.81 E111.62537
G1 X11.529 Y61.617 E111.64022
G1 X11.845 Y61.5 E111.65591
G1 X223.155 Y61.5 E121.49539
G1 X223.471 Y61.617 E121.51108
G1 X223.725 Y61.81 E121.52594
G1 X223.924 Y62.115 E121.54289
G1 X224 Y62.5 E121.56117
G1 X224 Y172.625 E126.68905
G1 X223.924 Y172.885 E126.70166
G1 X223.725 Y173.19 E126.71862
G1 X223.471 Y173.383 E126.73347
G1 X223.155 Y173.5 E126.74916
G0 F6000 X223.094 Y173.1
G1 F900 X11.906 Y173.1 E136.58296
G1 X11.717 Y173.03 E136.59235
G1 X11.565 Y172.914 E136.60125
G1 X11.446 Y172.731 E136.61142
G1 X11.4 Y172.577 E136.6189
G1 X11.4 Y62.5 E141.74455
G1 X11.446 Y62.269 E141.75551
G1 X11.565 Y62.086 E141.76568
G1 X11.717 Y61.97 E141.77458
G1 X11.906 Y61.9 E141.78397
G1 X223.094 Y61.9 E151.61776
G1 X223.283 Y61.97 E151.62715
G1 X223.435 Y62.086 E151.63605
G1 X223.554 Y62.269 E151.64622
G1 X223.6 Y62.5 E151.65718
G1 X223.6 Y172.577 E156.78283
G1 X223.554 Y172.731 E156.79031
G1 X223.435 Y172.914 E156.80048
G1 X223.283 Y173.03 E156.80938
G1 X223.094 Y173.1 E156.81877
G1 F2700 E151.81877
G0 F6000 X223.094 Y173.4
G0 X223.348 Y174.042
G0 X225.4 Y174.042
G0 X225.6 Y183.1
G1 F2700 E156.81877
G1 F900 X225.6 Y51.9 E162.92799
G1 X9.4 Y51.9 E172.99517
G1 X9.4 Y183.1 E179.10439
G1 X225.6 Y183.1 E189.17157
G0 F6000 X226 Y183.5
G1 F900 X226 Y51.5 E195.31804
G1 X9 Y51.5 E205.42247
G1 X9 Y183.5 E211.56894
G1 X226 Y183.5 E221.67337
G0 F6000 X226.4 Y183.9
G1 F900 X226.4 Y51.1 E227.85709
G1 X8.6 Y51.1 E237.99877
G1 X8.6 Y183.9 E244.1825
G1 X226.4 Y183.9 E254.32418
G0 F6000 X226.8 Y184.3
;TYPE:WALL-OUTER
G1 F900 X226.8 Y50.7 E260.54515
G1 X8.2 Y50.7 E270.72409
G1 X8.2 Y184.3 E276.94506
G1 X226.8 Y184.3 E287.12399
G1 F2700 E282.12399
G0 F6000 X226.53 Y184.03
G0 X225.4 Y173.4
G0 X224.459 Y173.108
G0 X223.948 Y173.286
G0 X223.044 Y173.4
G0 X223.044 Y172.696
G1 F2700 E287.12399
G1 F900 X11.956 Y172.696 E296.95313
G1 X11.855 Y172.638 E296.95856
G1 X11.802 Y172.535 E296.96395
G1 X11.8 Y62.5 E302.08764
G1 X11.855 Y62.362 E302.09456
G1 X11.956 Y62.304 E302.09998
G1 X223.044 Y62.304 E311.92912
G1 X223.145 Y62.362 E311.93455
G1 X223.2 Y62.5 E311.94147
G1 X223.198 Y172.535 E317.06516
G1 X223.145 Y172.638 E317.07055
G1 X223.044 Y172.696 E317.07597
G1 F2700 E312.07597
G0 F6000 X223.044 Y173.4
G0 X223.348 Y174.042
G0 X225.4 Y174.042
G0 X225.5 Y182.74
G0 X225.24 Y182.74
;TYPE:SKIN
G1 F2700 E317.07597
G1 F900 X9.76 Y182.74 E327.10962
G1 X9.76 Y173.245 E327.55175
G1 F847.1 X9.786 Y172.801 E327.57376
G1 F801.8 X9.785 Y136.006 E329.49697
G1 F805.4 X9.784 Y99.211 E331.41161
G1 F809 X9.782 Y62.416 E333.31769
G1 F853.1 X9.76 Y61.802 E333.34787
G1 F900 X9.76 Y52.26 E333.79219
G1 X225.24 Y52.26 E343.82584
G1 X225.24 Y61.802 E344.27016
G1 F853.1 X225.218 Y62.417 E344.30039
G1 F812.6 X225.218 Y99.109 E346.19259
G1 F814.5 X225.219 Y135.801 E348.08052
G1 F818.2 X225.22 Y172.493 E349.9599
G1 F805.4 X225.213 Y172.846 E349.97828
G1 F843.1 X225.24 Y173.239 E349.99786
G1 F900 X225.24 Y182.74 E350.44026
G1 F2700 E345.44026
G0 F6000 X225.5 Y182.74
G0 X225.4 Y174
G0 X224.332 Y173.303
G0 X222.995 Y174
G0 X223.019 Y174.259
G1 F2700 E350.44026
G1 F900 X223.414 Y174.208 E350.45881
G1 X223.83 Y174.054 E350.47947
G1 X224.276 Y173.715 E350.50555
G1 X224.608 Y173.205 E350.53389
G1 F843.1 X224.761 Y172.807 E350.55508
G1 F803.6 X224.78 Y172.511 E350.57055
G1 F816.3 X224.779 Y117.485 E353.39542
G1 F812.6 X224.778 Y62.459 E356.2331
G1 F831.4 X224.627 Y61.82 E356.2662
G1 F875.9 X224.273 Y61.281 E356.29705
G1 F900 X223.831 Y60.947 E356.32285
G1 X223.416 Y60.789 E356.34353
G1 X223.017 Y60.741 E356.36224
G1 X11.983 Y60.741 E366.18887
G1 X11.58 Y60.789 E366.20776
G1 X11.165 Y60.947 E366.22844
G1 F888.9 X10.722 Y61.282 E366.25463
G1 F865.4 X10.372 Y61.821 E366.28575
G1 F831.4 X10.222 Y62.46 E366.31883
G1 F810.8 X10.222 Y99.139 E368.21463
G1 F814.5 X10.221 Y135.818 E370.10189
G1 F818.2 X10.22 Y172.497 E371.98062
G1 F809 X10.235 Y172.785 E371.99555
G1 F847.1 X10.392 Y173.205 E372.01774
G1 F900 X10.722 Y173.713 E372.04595
G1 X11.167 Y174.054 E372.07205
G1 X11.582 Y174.208 E372.09266
G1 X11.981 Y174.259 E372.11139
G1 X223.019 Y174.259 E381.93821
G1 F2700 E376.93821
G0 F6000 X222.995 Y174
G0 X223.828 Y173.328
G0 X224.581 Y62.501
G0 X224.581 Y52.1
G0 X224.429 Y52.46
G1 F2700 E381.93821
G1 F900 X225.04 Y53.072 E381.97847
G0 F6000 X225.04 Y53.638
G1 F900 X223.863 Y52.46 E382.05602
G0 F6000 X223.297 Y52.46
G1 F900 X225.04 Y54.203 E382.17079
G0 F6000 X225.04 Y54.769
G1 F900 X222.732 Y52.46 E382.32281
G0 F6000 X222.166 Y52.46
G1 F900 X225.04 Y55.335 E382.5121
G0 F6000 X225.04 Y55.9
G1 F900 X221.6 Y52.46 E382.73863
G0 F6000 X221.035 Y52.46
G1 F900 X225.04 Y56.466 E383.0024
G0 F6000 X225.04 Y57.032
G1 F900 X220.469 Y52.46 E383.30344
G0 F6000 X219.903 Y52.46
G1 F900 X225.04 Y57.597 E383.64172
G0 F6000 X225.04 Y58.163
G1 F900 X219.337 Y52.46 E384.01728
G0 F6000 X218.772 Y52.46
G1 F900 X225.04 Y58.729 E384.43007
G0 F6000 X225.04 Y59.294
G1 F900 X218.206 Y52.46 E384.8801
G0 F6000 X217.64 Y52.46
G1 F900 X225.04 Y59.86 E385.3674
G0 F6000 X225.04 Y60.426
G1 F900 X217.075 Y52.46 E385.89194
G0 F6000 X216.509 Y52.46
G1 F900 X225.04 Y60.991 E386.45372
G0 F6000 X225.04 Y61.557
G1 F900 X215.943 Y52.46 E387.05278
G0 F6000 X215.378 Y52.46
G1 F900 X223.538 Y60.621 E387.59016
G0 F6000 X222.893 Y60.541
G1 F900 X214.812 Y52.46 E388.12231
G0 F6000 X214.246 Y52.46
G1 F900 X222.327 Y60.541 E388.65446
G0 F6000 X221.761 Y60.541
G1 F900 X213.681 Y52.46 E389.18657
G0 F6000 X213.115 Y52.46
G1 F900 X221.196 Y60.541 E389.71872
G0 F6000 X220.63 Y60.541
G1 F900 X212.549 Y52.46 E390.25087
G0 F6000 X211.984 Y52.46
G1 F900 X220.064 Y60.541 E390.78298
G0 F6000 X219.499 Y60.541
G1 F900 X211.418 Y52.46 E391.31513
G0 F6000 X210.852 Y52.46
G1 F900 X218.933 Y60.541 E391.84728
G0 F6000 X218.367 Y60.541
G1 F900 X210.286 Y52.46 E392.37942
G0 F6000 X209.721 Y52.46
G1 F900 X217.802 Y60.541 E392.91157
G0 F6000 X217.236 Y60.541
G1 F900 X209.155 Y52.46 E393.44372
G0 F6000 X208.589 Y52.46
G1 F900 X216.67 Y60.541 E393.97587
G0 F6000 X216.105 Y60.541
G1 F900 X208.024 Y52.46 E394.50801
G0 F6000 X207.458 Y52.46
G1 F900 X215.539 Y60.541 E395.04016
G0 F6000 X214.973 Y60.541
G1 F900 X206.892 Y52.46 E395.57231
G0 F6000 X206.327 Y52.46
G1 F900 X214.408 Y60.541 E396.10446
G0 F6000 X213.842 Y60.541
G1 F900 X205.761 Y52.46 E396.6366
G0 F6000 X205.195 Y52.46
G1 F900 X213.276 Y60.541 E397.16875
G0 F6000 X212.71 Y60.541
G1 F900 X204.63 Y52.46 E397.70087
G0 F6000 X204.064 Y52.46
G1 F900 X212.145 Y60.541 E398.23301
G0 F6000 X211.579 Y60.541
G1 F900 X203.498 Y52.46 E398.76516
G0 F6000 X202.933 Y52.46
G1 F900 X211.013 Y60.541 E399.29728
G0 F6000 X210.448 Y60.541
G1 F900 X202.367 Y52.46 E399.82942
G0 F6000 X201.801 Y52.46
G1 F900 X209.882 Y60.541 E400.36157
G0 F6000 X209.316 Y60.541
G1 F900 X201.236 Y52.46 E400.89369
G0 F6000 X200.67 Y52.46
G1 F900 X208.751 Y60.541 E401.42583
G0 F6000 X208.185 Y60.541
G1 F900 X200.104 Y52.46 E401.95798
G0 F6000 X199.538 Y52.46
G1 F900 X207.619 Y60.541 E402.49013
G0 F6000 X207.054 Y60.541
G1 F900 X198.973 Y52.46 E403.02228
G0 F6000 X198.407 Y52.46
G1 F900 X206.488 Y60.541 E403.55442
G0 F6000 X205.922 Y60.541
G1 F900 X197.841 Y52.46 E404.08657
G0 F6000 X197.276 Y52.46
G1 F900 X205.357 Y60.541 E404.61872
G0 F6000 X204.791 Y60.541
G1 F900 X196.71 Y52.46 E405.15087
G0 F6000 X196.144 Y52.46
G1 F900 X204.225 Y60.541 E405.68302
G0 F6000 X203.659 Y60.541
G1 F900 X195.579 Y52.46 E406.21513
G0 F6000 X195.013 Y52.46
G1 F900 X203.094 Y60.541 E406.74728
G0 F6000 X202.528 Y60.541
G1 F900 X194.447 Y52.46 E407.27943
G0 F6000 X193.882 Y52.46
G1 F900 X201.962 Y60.541 E407.81154
G0 F6000 X201.397 Y60.541
G1 F900 X193.316 Y52.46 E408.34369
G0 F6000 X192.75 Y52.46
G1 F900 X200.831 Y60.541 E408.87584
G0 F6000 X200.265 Y60.541
G1 F900 X192.185 Y52.46 E409.40795
G0 F6000 X191.619 Y52.46
G1 F900 X199.7 Y60.541 E409.9401
G0 F6000 X199.134 Y60.541
G1 F900 X191.053 Y52.46 E410.47225
G0 F6000 X190.487 Y52.46
G1 F900 X198.568 Y60.541 E411.00439
G0 F6000 X198.003 Y60.541
G1 F900 X189.922 Y52.46 E411.53654
G0 F6000 X189.356 Y52.46
G1 F900 X197.437 Y60.541 E412.06869
G0 F6000 X196.871 Y60.541
G1 F900 X188.79 Y52.46 E412.60084
G0 F6000 X188.225 Y52.46
G1 F900 X196.306 Y60.541 E413.13298
G0 F6000 X195.74 Y60.541
G1 F900 X187.659 Y52.46 E413.66513
G0 F6000 X187.093 Y52.46
G1 F900 X195.174 Y60.541 E414.19728
G0 F6000 X194.609 Y60.541
G1 F900 X186.528 Y52.46 E414.72943
G0 F6000 X185.962 Y52.46
G1 F900 X194.043 Y60.541 E415.26157
G0 F6000 X193.477 Y60.541
G1 F900 X185.396 Y52.46 E415.79372
G0 F6000 X184.831 Y52.46
G1 F900 X192.911 Y60.541 E416.32584
G0 F6000 X192.346 Y60.541
G1 F900 X184.265 Y52.46 E416.85798
G0 F6000 X183.699 Y52.46
G1 F900 X191.78 Y60.541 E417.39013
G0 F6000 X191.214 Y60.541
G1 F900 X183.134 Y52.46 E417.92225
G0 F6000 X182.568 Y52.46
G1 F900 X190.649 Y60.541 E418.45439
G0 F6000 X190.083 Y60.541
G1 F900 X182.002 Y52.46 E418.98654
G0 F6000 X181.437 Y52.46
G1 F900 X189.517 Y60.541 E419.51866
G0 F6000 X188.952 Y60.541
G1 F900 X180.871 Y52.46 E420.0508
G0 F6000 X180.305 Y52.46
G1 F900 X188.386 Y60.541 E420.58295
G0 F6000 X187.82 Y60.541
G1 F900 X179.739 Y52.46 E421.1151
G0 F6000 X179.174 Y52.46
G1 F900 X187.255 Y60.541 E421.64725
G0 F6000 X186.689 Y60.541
G1 F900 X178.608 Y52.46 E422.17939
G0 F6000 X178.042 Y52.46
G1 F900 X186.123 Y60.541 E422.71154
G0 F6000 X185.558 Y60.541
G1 F900 X177.477 Y52.46 E423.24369
G0 F6000 X176.911 Y52.46
G1 F900 X184.992 Y60.541 E423.77584
G0 F6000 X184.426 Y60.541
G1 F900 X176.345 Y52.46 E424.30799
G0 F6000 X175.78 Y52.46
G1 F900 X183.86 Y60.541 E424.8401
G0 F6000 X183.295 Y60.541
G1 F900 X175.214 Y52.46 E425.37225
G0 F6000 X174.648 Y52.46
G1 F900 X182.729 Y60.541 E425.9044
G0 F6000 X182.163 Y60.541
G1 F900 X174.083 Y52.46 E426.43651
G0 F6000 X173.517 Y52.46
G1 F900 X181.598 Y60.541 E426.96866
G0 F6000 X181.032 Y60.541
G1 F900 X172.951 Y52.46 E427.50081
G0 F6000 X172.386 Y52.46
G1 F900 X180.466 Y60.541 E428.03292
G0 F6000 X179.901 Y60.541
G1 F900 X171.82 Y52.46 E428.56507
G0 F6000 X171.254 Y52.46
G1 F900 X179.335 Y60.541 E429.09722
G0 F6000 X178.769 Y60.541
G1 F900 X170.689 Y52.46 E429.62933
G0 F6000 X170.123 Y52.46
