;FLAVOR:Marlin
;TIME:7950
;Filament used: 12.4982m
;Layer height: 0.28
;MINX:41.5
;MINY:66.5
;MINZ:0.28
;MAXX:193.5
;MAXY:168.5
;MAXZ:5.04
;TARGET_MACHINE.NAME:Creality Ender-3
;Generated with Cura_SteamEngine 5.7.1
M140 S70
M105
M190 S70
M104 S240
M105
M109 S240
M82 ;absolute extrusion mode
; Ender 3 Custom Start G-code
G92 E0 ; Reset Extruder
G28 ; Home all axes
G1 Z2.0 F3000 ; Move Z Axis up little to prevent scratching of Heat Bed
G1 X0.1 Y20 Z0.3 F5000.0 ; Move to start position
G1 X0.1 Y200.0 Z0.3 F1500.0 E15 ; Draw the first line
G1 X0.4 Y200.0 Z0.3 F5000.0 ; Move to side a little
G1 X0.4 Y20 Z0.3 F1500.0 E30 ; Draw the second line
G92 E0 ; Reset Extruder
G1 Z2.0 F3000 ; Move Z Axis up little to prevent scratching of Heat Bed
G1 X5 Y20 Z0.3 F5000.0 ; Move over to prevent blob squish
G92 E0
G92 E0
G1 F2700 E-5
;LAYER_COUNT:18
;LAYER:0
M107
G0 F6000 X47.083 Y72.581 Z0.28
;TYPE:SKIRT
G1 F2700 E0
G1 F900 X47.898 Y72.048 E0.04534
G1 X48.748 Y71.592 E0.09026
G1 X49.389 Y71.309 E0.12289
G1 X51.727 Y70.365 E0.24029
G1 X54.087 Y69.336 E0.36018
G1 X56.432 Y68.234 E0.48083
G1 X57.7 Y67.614 E0.54655
G1 X58.528 Y67.253 E0.58861
G1 X59.52 Y66.923 E0.63729
G1 X60.467 Y66.7 E0.68259
G1 X61.361 Y66.57 E0.72466
G1 X62.173 Y66.515 E0.76256
G1 X62.812 Y66.5 E0.79232
G1 X171.804 Y66.5 E5.86744
G1 X172.689 Y66.513 E5.90866
G1 X173.66 Y66.572 E5.95395
G1 X174.624 Y66.718 E5.99935
G1 X175.571 Y66.949 E6.04474
G1 X176.489 Y67.261 E6.08989
G1 X177.302 Y67.614 E6.13116
G1 X179.74 Y68.797 E6.25734
G1 X182.031 Y69.831 E6.37438
G1 X184.407 Y70.825 E6.49431
G1 X185.631 Y71.318 E6.55576
G1 X186.516 Y71.724 E6.60109
G1 X187.362 Y72.207 E6.64646
G1 X188.161 Y72.762 E6.69176
G1 X188.909 Y73.386 E6.73711
G1 X189.575 Y74.048 E6.78084
G1 X190.224 Y74.821 E6.82784
G1 X190.78 Y75.619 E6.87313
G1 X191.266 Y76.463 E6.91848
G1 X191.647 Y77.282 E6.96054
G1 X191.989 Y78.226 E7.00729
G1 X192.172 Y78.88 E7.03891
G1 X192.86 Y81.676 E7.17299
G1 X193.14 Y82.749 E7.22463
G1 X193.342 Y83.702 E7.26999
G1 X193.452 Y84.598 E7.31202
G1 X193.485 Y85.173 E7.33884
G1 X193.5 Y85.83 E7.36944
G1 X193.499 Y156.9 E10.67876
G1 X193.488 Y157.663 E10.71429
G1 X193.431 Y158.636 E10.75967
G1 X193.286 Y159.599 E10.80502
G1 X193.057 Y160.545 E10.85034
G1 X192.746 Y161.469 E10.89574
G1 X192.354 Y162.36 E10.94107
G1 X191.886 Y163.212 E10.98633
G1 X191.364 Y163.993 E11.03007
G1 X190.731 Y164.778 E11.07703
G1 X190.106 Y165.429 E11.11905
G1 X189.317 Y166.117 E11.1678
G1 X188.557 Y166.667 E11.21148
G1 X187.69 Y167.184 E11.25848
G1 X186.812 Y167.606 E11.30384
G1 X185.901 Y167.948 E11.34915
G1 X184.962 Y168.209 E11.39454
G1 X183.996 Y168.387 E11.44027
G1 X182.845 Y168.485 E11.49406
G1 X182.17 Y168.5 E11.5255
G1 X53.064 Y168.499 E17.53722
G1 X52.331 Y168.488 E17.57135
G1 X51.359 Y168.431 E17.61669
G1 X50.396 Y168.285 E17.66205
G1 X49.45 Y168.056 E17.70737
G1 X48.526 Y167.744 E17.75278
G1 X47.636 Y167.352 E17.79806
G1 X46.813 Y166.901 E17.84176
G1 X45.974 Y166.34 E17.88876
G1 X45.27 Y165.774 E17.93082
G1 X44.517 Y165.049 E17.97949
G1 X43.88 Y164.313 E18.02482
G1 X43.35 Y163.582 E18.06686
G1 X42.814 Y162.685 E18.11552
G1 X42.392 Y161.807 E18.16088
G1 X42.05 Y160.895 E18.20623
G1 X41.79 Y159.957 E18.25156
G1 X41.612 Y158.988 E18.29743
G1 X41.514 Y157.809 E18.35252
G1 X41.5 Y157.158 E18.38284
G1 X41.501 Y86.035 E21.69463
G1 X41.514 Y85.293 E21.72918
G1 X41.574 Y84.322 E21.77448
G1 X41.708 Y83.429 E21.81653
G1 X41.858 Y82.762 E21.84836
G1 X42.441 Y80.493 E21.95745
G1 X42.821 Y78.911 E22.03321
G1 X43.092 Y77.975 E22.07858
G1 X43.445 Y77.068 E22.1239
G1 X43.877 Y76.196 E22.16922
G1 X44.385 Y75.365 E22.21457
G1 X44.964 Y74.582 E22.25992
G1 X45.586 Y73.878 E22.30366
G1 X46.319 Y73.184 E22.35066
G1 X47.083 Y72.581 E22.39598
G0 F6000 X47.303 Y72.915
G1 F900 X48.087 Y72.4 E22.43966
G1 X48.91 Y71.958 E22.48316
G1 X49.539 Y71.68 E22.51518
G1 X51.887 Y70.732 E22.63309
G1 X54.247 Y69.703 E22.75297
G1 X56.602 Y68.596 E22.87414
G1 X57.86 Y67.981 E22.93934
G1 X58.688 Y67.62 E22.9814
G1 X59.612 Y67.312 E23.02676
G1 X60.525 Y67.096 E23.07044
G1 X61.419 Y66.966 E23.11251
G1 X62.182 Y66.915 E23.14812
G1 X62.821 Y66.9 E23.17788
G1 X171.798 Y66.9 E28.25231
G1 X172.665 Y66.912 E28.29268
G1 X173.601 Y66.968 E28.33634
G1 X174.53 Y67.107 E28.38008
G1 X175.443 Y67.328 E28.42382
G1 X176.33 Y67.628 E28.46742
G1 X177.127 Y67.974 E28.50788
G1 X179.566 Y69.158 E28.63413
G1 X181.867 Y70.196 E28.75167
G1 X184.258 Y71.196 E28.87235
G1 X185.465 Y71.682 E28.93294
G1 X186.318 Y72.072 E28.97661
G1 X187.134 Y72.536 E29.02032
G1 X187.905 Y73.07 E29.06399
G1 X188.627 Y73.67 E29.1077
G1 X189.293 Y74.332 E29.15143
G1 X189.896 Y75.05 E29.19509
G1 X190.434 Y75.819 E29.23879
G1 X190.903 Y76.632 E29.2825
G1 X191.284 Y77.451 E29.32456
G1 X191.613 Y78.362 E29.36966
G1 X191.784 Y78.976 E29.39934
G1 X192.473 Y81.777 E29.53365
G1 X192.749 Y82.833 E29.58447
G1 X192.945 Y83.751 E29.62818
G1 X193.055 Y84.647 E29.67022
G1 X193.085 Y85.182 E29.69517
G1 X193.1 Y85.83 E29.72535
G1 X193.099 Y156.895 E33.03443
G1 X193.089 Y157.64 E33.06913
G1 X193.035 Y158.577 E33.11283
G1 X192.897 Y159.506 E33.15656
G1 X192.678 Y160.418 E33.20024
G1 X192.38 Y161.308 E33.24394
G1 X192.003 Y162.168 E33.28766
G1 X191.553 Y162.99 E33.3313
G1 X191.031 Y163.771 E33.37504
G1 X190.442 Y164.501 E33.41872
G1 X189.817 Y165.152 E33.46074
G1 X189.082 Y165.793 E33.50615
G1 X188.322 Y166.343 E33.54984
G1 X187.516 Y166.824 E33.59354
G1 X186.671 Y167.232 E33.63724
G1 X185.793 Y167.563 E33.68093
G1 X184.889 Y167.816 E33.72464
G1 X183.962 Y167.988 E33.76854
G1 X182.811 Y168.086 E33.82233
G1 X182.17 Y168.1 E33.85218
G1 X53.07 Y168.099 E39.86362
G1 X52.354 Y168.089 E39.89696
G1 X51.418 Y168.035 E39.94062
G1 X50.489 Y167.896 E39.98436
G1 X49.577 Y167.677 E40.02803
G1 X48.687 Y167.378 E40.07175
G1 X47.828 Y167.001 E40.11543
G1 X47.005 Y166.55 E40.15913
G1 X46.225 Y166.028 E40.20284
G1 X45.521 Y165.462 E40.2449
G1 X44.819 Y164.787 E40.29025
G1 X44.204 Y164.078 E40.33395
G1 X43.674 Y163.347 E40.37599
G1 X43.174 Y162.511 E40.42135
G1 X42.766 Y161.666 E40.46505
G1 X42.435 Y160.788 E40.50874
G1 X42.183 Y159.884 E40.55244
G1 X42.011 Y158.955 E40.59643
G1 X41.913 Y157.776 E40.65152
G1 X41.9 Y157.158 E40.6803
G1 X41.901 Y86.042 E43.99176
G1 X41.913 Y85.317 E44.02552
G1 X41.97 Y84.381 E44.06919
G1 X42.104 Y83.488 E44.11124
G1 X42.245 Y82.862 E44.14112
G1 X42.828 Y80.593 E44.2502
G1 X43.205 Y79.022 E44.32543
G1 X43.465 Y78.12 E44.36914
G1 X43.804 Y77.245 E44.41284
G1 X44.219 Y76.404 E44.45651
G1 X44.707 Y75.602 E44.50022
G1 X45.264 Y74.847 E44.54391
G1 X45.886 Y74.143 E44.58765
G1 X46.567 Y73.498 E44.63133
G1 X47.303 Y72.915 E44.67505
G0 F6000 X47.523 Y73.249
G1 F900 X48.277 Y72.752 E44.7171
G1 X49.072 Y72.324 E44.75914
G1 X49.689 Y72.051 E44.79056
G1 X52.047 Y71.099 E44.90897
G1 X54.407 Y70.07 E45.02885
G1 X56.772 Y68.958 E45.15054
G1 X58.02 Y68.348 E45.21522
G1 X58.848 Y67.987 E45.25728
G1 X59.705 Y67.701 E45.29935
G1 X60.583 Y67.492 E45.34138
G1 X61.477 Y67.362 E45.38344
G1 X62.191 Y67.315 E45.41676
G1 X62.83 Y67.3 E45.44652
G1 X171.793 Y67.3 E50.5203
G1 X172.642 Y67.311 E50.55983
G1 X173.543 Y67.364 E50.60186
G1 X174.437 Y67.496 E50.64394
G1 X175.315 Y67.707 E50.68599
G1 X176.171 Y67.995 E50.72804
G1 X176.952 Y68.334 E50.76769
G1 X179.392 Y69.519 E50.89399
G1 X181.703 Y70.561 E51.01204
G1 X184.109 Y71.567 E51.13347
G1 X185.299 Y72.046 E51.1932
G1 X186.121 Y72.42 E51.23525
G1 X186.907 Y72.865 E51.27731
G1 X187.65 Y73.378 E51.31935
G1 X188.345 Y73.954 E51.36138
G1 X188.987 Y74.59 E51.40346
G1 X189.569 Y75.28 E51.4455
G1 X190.088 Y76.019 E51.48755
G1 X190.54 Y76.801 E51.5296
G1 X190.921 Y77.62 E51.57166
G1 X191.228 Y78.47 E51.61375
G1 X191.396 Y79.072 E51.64285
G1 X192.086 Y81.878 E51.7774
G1 X192.358 Y82.917 E51.82741
G1 X192.548 Y83.8 E51.86947
G1 X192.658 Y84.696 E51.9115
G1 X192.685 Y85.191 E51.93459
G1 X192.7 Y85.83 E51.96435
G1 X192.699 Y156.89 E55.2732
G1 X192.69 Y157.617 E55.30706
G1 X192.639 Y158.519 E55.34912
G1 X192.508 Y159.413 E55.3912
G1 X192.299 Y160.291 E55.43322
G1 X192.013 Y161.148 E55.47529
G1 X191.652 Y161.976 E55.51735
G1 X191.22 Y162.768 E55.55936
G1 X190.719 Y163.52 E55.60144
G1 X190.153 Y164.224 E55.6435
G1 X189.528 Y164.875 E55.68552
G1 X188.847 Y165.469 E55.7276
G1 X188.116 Y166 E55.76967
G1 X187.342 Y166.464 E55.81169
G1 X186.529 Y166.858 E55.85376
G1 X185.685 Y167.178 E55.89579
G1 X184.815 Y167.423 E55.93787
G1 X183.928 Y167.589 E55.97989
G1 X182.777 Y167.687 E56.03368
G1 X182.17 Y167.7 E56.06195
G1 X53.075 Y167.699 E62.07316
G1 X52.377 Y167.69 E62.10566
G1 X51.476 Y167.639 E62.14768
G1 X50.582 Y167.507 E62.18976
G1 X49.704 Y167.298 E62.23179
G1 X48.847 Y167.011 E62.27387
G1 X48.02 Y166.65 E62.31589
G1 X47.227 Y166.217 E62.35796
G1 X46.476 Y165.716 E62.4
G1 X45.772 Y165.15 E62.44206
G1 X45.121 Y164.524 E62.48412
G1 X44.528 Y163.843 E62.52616
G1 X43.998 Y163.112 E62.56821
G1 X43.534 Y162.337 E62.61027
G1 X43.14 Y161.524 E62.65234
G1 X42.82 Y160.68 E62.69437
G1 X42.576 Y159.81 E62.73644
G1 X42.41 Y158.922 E62.7785
G1 X42.313 Y157.767 E62.83248
G1 X42.3 Y157.158 E62.86084
G1 X42.301 Y86.048 E66.17202
G1 X42.312 Y85.341 E66.20494
G1 X42.366 Y84.44 E66.24697
G1 X42.5 Y83.547 E66.28902
G1 X42.632 Y82.962 E66.31695
G1 X43.215 Y80.693 E66.42603
G1 X43.589 Y79.132 E66.50078
G1 X43.838 Y78.264 E66.54282
G1 X44.163 Y77.421 E66.58489
G1 X44.561 Y76.611 E66.62692
G1 X45.029 Y75.839 E66.66895
G1 X45.564 Y75.111 E66.71102
G1 X46.161 Y74.433 E66.75309
G1 X46.816 Y73.811 E66.79515
G1 X47.523 Y73.249 E66.8372
G1 F2700 E61.8372
;MESH:3x5_ends.stl
G0 F6000 X61.847 Y80.847
G0 X62.625 Y83.096
G0 X64.061 Y81.499
G0 X64.072 Y79.072
G0 X170.928 Y79.072
G0 X171.571 Y82.755
G0 X179.928 Y83.072
G0 X180.734 Y86.861
G0 X181.1 Y156.1
;TYPE:WALL-INNER
G1 F2700 E66.8372
G1 F900 X181.1 Y86.796 E70.06429
G1 X180.815 Y86.722 E70.078
G1 X180.424 Y86.426 E70.10083
G1 X180.217 Y86.063 E70.12029
G1 X180.1 Y85.665 E70.13961
G1 X180.1 Y82.9 E70.26836
G1 X172.39 Y82.896 E70.62737
G1 X172.115 Y82.847 E70.64037
G1 X171.753 Y82.685 E70.65884
G1 X171.439 Y82.435 E70.67753
G1 X171.244 Y82.121 E70.69474
G1 X171.123 Y81.756 E70.71265
G1 X171.1 Y81.5 E70.72462
G1 X171.1 Y78.9 E70.84568
G1 X63.9 Y78.9 E75.83736
G1 X63.9 Y81.5 E75.95843
G1 X63.867 Y81.869 E75.97568
G1 X63.685 Y82.247 E75.99522
G1 X63.432 Y82.546 E76.01346
G1 X63.092 Y82.77 E76.03241
G1 X62.718 Y82.896 E76.05079
G1 X54.9 Y82.9 E76.41483
G1 X54.9 Y85.665 E76.54358
G1 X54.783 Y86.063 E76.5629
G1 X54.576 Y86.426 E76.58235
G1 X54.185 Y86.722 E76.60519
G1 X53.9 Y86.796 E76.6189
G1 X53.9 Y156.1 E79.84599
G1 X181.1 Y156.1 E85.76895
G0 F6000 X181.5 Y156.5
G1 F900 X181.5 Y86.5 E89.02844
G1 X181.011 Y86.373 E89.05197
G1 X180.792 Y86.208 E89.06474
G1 X180.584 Y85.902 E89.08197
G1 X180.5 Y85.618 E89.09576
G1 X180.5 Y82.5 E89.24094
G1 X172.421 Y82.497 E89.61714
G1 X172.225 Y82.462 E89.62641
G1 X171.935 Y82.326 E89.64132
G1 X171.75 Y82.163 E89.6528
G1 X171.555 Y81.829 E89.67081
G1 X171.5 Y81.5 E89.68634
G1 X171.5 Y78.5 E89.82604
G1 X63.5 Y78.5 E94.85497
G1 X63.5 Y81.635 E95.00095
G1 X63.397 Y81.944 E95.01611
G1 X63.166 Y82.247 E95.03385
G1 X62.923 Y82.407 E95.0474
G1 X62.579 Y82.497 E95.06396
G1 X54.5 Y82.5 E95.44015
G1 X54.5 Y85.5 E95.57984
G1 X54.457 Y85.794 E95.59368
G1 X54.373 Y85.99 E95.60361
G1 X54.208 Y86.208 E95.61634
G1 X53.989 Y86.373 E95.62911
G1 X53.5 Y86.5 E95.65263
G1 X53.5 Y156.5 E98.91213
G1 X181.5 Y156.5 E104.87234
G0 F6000 X181.9 Y156.9
G1 F900 X181.9 Y86.1 E108.16909
G1 X181.5 Y86.1 E108.18771
G1 X181.206 Y86.024 E108.20185
G1 X181.075 Y85.925 E108.2095
G1 X180.95 Y85.741 E108.21986
G1 X180.9 Y85.574 E108.22797
G1 X180.9 Y82.1 E108.38974
G1 X172.373 Y82.099 E108.78679
G1 X172.1 Y81.949 E108.8013
G1 X171.933 Y81.698 E108.81533
G1 X171.9 Y81.5 E108.82468
G1 X171.9 Y78.1 E108.983
G1 X63.1 Y78.1 E114.04918
G1 X63.1 Y81.5 E114.2075
G1 X63.067 Y81.698 E114.21685
G1 X62.9 Y81.949 E114.23089
G1 X62.778 Y82.032 E114.23776
G1 X62.547 Y82.099 E114.24896
G1 X54.1 Y82.1 E114.64228
G1 X54.1 Y85.568 E114.80377
G1 X54.024 Y85.794 E114.81487
G1 X53.794 Y86.024 E114.83002
G1 X53.5 Y86.1 E114.84416
G1 X53.1 Y86.1 E114.86278
G1 X53.1 Y156.9 E118.15953
G1 X181.9 Y156.9 E124.15699
G0 F6000 X182.3 Y157.3
;TYPE:WALL-OUTER
G1 F900 X182.3 Y85.7 E127.49099
G1 X181.5 Y85.7 E127.52824
G1 X181.358 Y85.642 E127.53538
G1 X181.302 Y85.533 E127.54109
G1 X181.3 Y81.7 E127.71957
G1 X172.484 Y81.7 E128.13008
G1 X172.34 Y81.622 E128.13771
G1 X172.303 Y81.537 E128.14202
G1 X172.3 Y77.7 E128.32069
G1 X62.7 Y77.7 E133.42413
G1 X62.697 Y81.572 E133.60442
G1 X62.571 Y81.7 E133.61279
G1 X53.7 Y81.7 E134.02586
G1 X53.698 Y85.533 E134.20434
G1 X53.642 Y85.642 E134.21004
G1 X53.5 Y85.7 E134.21719
G1 X52.7 Y85.7 E134.25444
G1 X52.7 Y157.3 E137.58843
G1 X182.3 Y157.3 E143.62315
G0 F6000 X182.03 Y157.03
G0 X181 Y155.74
G0 X180.74 Y155.74
;TYPE:SKIN
G1 F900 X54.26 Y155.74 E149.51259
G1 X54.26 Y87.068 E152.71025
G1 X54.386 Y87.02 E152.71652
G1 X54.722 Y86.764 E152.73619
G1 X54.922 Y86.533 E152.75042
G1 X55.102 Y86.224 E152.76707
G1 X55.232 Y85.806 E152.78746
G1 X55.26 Y85.512 E152.80121
G1 X55.26 Y83.26 E152.90607
G1 X62.64 Y83.256 E153.24971
G1 X62.975 Y83.194 E153.26558
G1 X63.429 Y83.014 E153.28832
G1 X63.804 Y82.68 E153.3117
G1 X63.98 Y82.454 E153.32504
G1 X64.221 Y81.963 E153.35051
G1 X64.26 Y81.51 E153.37168
G1 X64.26 Y79.26 E153.47645
G1 X170.74 Y79.26 E158.43461
G1 X170.74 Y81.514 E158.53956
G1 X170.784 Y81.973 E158.56103
G1 X170.995 Y82.419 E158.58401
G1 X171.177 Y82.665 E158.59826
G1 X171.459 Y82.918 E158.6159
G1 X171.925 Y83.163 E158.64041
G1 X172.297 Y83.256 E158.65827
G1 X179.74 Y83.26 E159.00484
G1 X179.74 Y85.694 E159.11818
G1 X179.884 Y86.204 E159.14286
G1 X180.054 Y86.504 E159.15891
G1 X180.242 Y86.733 E159.17271
G1 X180.61 Y87.02 E159.19444
G1 X180.74 Y87.068 E159.20089
G1 X180.74 Y155.74 E162.39855
G1 F2700 E157.39855
G0 F6000 X181 Y155.74
G0 X180.931 Y86.92
G0 X179.939 Y85.499
G0 X179.928 Y83.072
G0 X179.062 Y83
G0 X179.061 Y83.46
G1 F2700 E162.39855
G1 F900 X179.541 Y83.94 E162.43016
G0 F6000 X179.541 Y84.506
G1 F900 X178.494 Y83.459 E162.49911
G0 F6000 X177.929 Y83.459
G1 F900 X179.541 Y85.072 E162.60529
G0 F6000 X179.554 Y85.65
G1 F900 X177.362 Y83.458 E162.74964
G0 F6000 X176.796 Y83.458
G1 F900 X179.803 Y86.465 E162.94765
G0 F6000 X180.202 Y86.239
G0 X180.931 Y86.92
G0 X181 Y87.768
G0 X180.54 Y87.768
G1 F900 X176.23 Y83.458 E163.23148
G0 F6000 X175.664 Y83.458
G1 F900 X180.54 Y88.333 E163.55254
G0 F6000 X180.54 Y88.899
G1 F900 X175.098 Y83.457 E163.9109
G0 F6000 X174.532 Y83.457
G1 F900 X180.54 Y89.465 E164.30654
G0 F6000 X180.54 Y90.03
G1 F900 X173.966 Y83.456 E164.73945
G0 F6000 X173.4 Y83.456
G1 F900 X180.54 Y90.596 E165.20963
G0 F6000 X180.54 Y91.162
G1 F900 X172.834 Y83.456 E165.71708
G0 F6000 X172.264 Y83.451
G1 F900 X180.54 Y91.727 E166.26207
G0 F6000 X180.54 Y92.293
G1 F900 X171.196 Y82.949 E166.87739
G0 F6000 X170.984 Y82.737
G1 F900 X167.707 Y79.46 E167.09318
G0 F6000 X167.142 Y79.46
G1 F900 X180.54 Y92.859 E167.9755
G0 F6000 X180.54 Y93.424
G1 F900 X166.576 Y79.46 E168.89505
G0 F6000 X166.01 Y79.46
G1 F900 X180.54 Y93.99 E169.85188
G0 F6000 X180.54 Y94.556
G1 F900 X165.445 Y79.46 E170.84594
G0 F6000 X164.879 Y79.46
G1 F900 X180.54 Y95.121 E171.87724
G0 F6000 X180.54 Y95.687
G1 F900 X164.313 Y79.46 E172.94582
G0 F6000 X163.748 Y79.46
G1 F900 X180.54 Y96.253 E174.05164
G0 F6000 X180.54 Y96.818
G1 F900 X163.182 Y79.46 E175.19469
G0 F6000 X162.616 Y79.46
G1 F900 X180.54 Y97.384 E176.37502
G0 F6000 X180.54 Y97.95
G1 F900 X162.05 Y79.46 E177.59261
G0 F6000 X161.485 Y79.46
G1 F900 X180.54 Y98.516 E178.84745
G0 F6000 X180.54 Y99.081
G1 F900 X160.919 Y79.46 E180.13953
G0 F6000 X160.353 Y79.46
G1 F900 X180.54 Y99.647 E181.46888
G0 F6000 X180.54 Y100.213
G1 F900 X159.788 Y79.46 E182.83546
G0 F6000 X159.222 Y79.46
G1 F900 X180.54 Y100.778 E184.23929
G0 F6000 X180.54 Y101.344
G1 F900 X158.656 Y79.46 E185.68039
G0 F6000 X158.091 Y79.46
G1 F900 X180.54 Y101.91 E187.15873
G0 F6000 X180.54 Y102.475
G1 F900 X157.525 Y79.46 E188.6743
G0 F6000 X156.959 Y79.46
G1 F900 X180.54 Y103.041 E190.22715
G0 F6000 X180.54 Y103.607
G1 F900 X156.394 Y79.46 E191.81724
