;FLAVOR:Marlin
;TIME:11129
;Filament used: 16.4418m
;Layer height: 0.28
;MINX:41.5
;MINY:66.5
;MINZ:0.28
;MAXX:193.5
;MAXY:168.5
;MAXZ:19.88
;TARGET_MACHINE.NAME:Creality Ender-3
;Generated with Cura_SteamEngine 5.7.1
M140 S70
M105
M190 S70
M104 S240
M105
M109 S240
M82 ;absolute extrusion mode
; Ender 3 Custom Start G-code
G92 E0 ; Reset Extruder
G28 ; Home all axes
G1 Z2.0 F3000 ; Move Z Axis up little to prevent scratching of Heat Bed
G1 X0.1 Y20 Z0.3 F5000.0 ; Move to start position
G1 X0.1 Y200.0 Z0.3 F1500.0 E15 ; Draw the first line
G1 X0.4 Y200.0 Z0.3 F5000.0 ; Move to side a little
G1 X0.4 Y20 Z0.3 F1500.0 E30 ; Draw the second line
G92 E0 ; Reset Extruder
G1 Z2.0 F3000 ; Move Z Axis up little to prevent scratching of Heat Bed
G1 X5 Y20 Z0.3 F5000.0 ; Move over to prevent blob squish
G92 E0
G92 E0
G1 F2700 E-5
;LAYER_COUNT:71
;LAYER:0
M107
G0 F6000 X47.083 Y72.581 Z0.28
;TYPE:SKIRT
G1 F2700 E0
G1 F900 X47.898 Y72.048 E0.04534
G1 X48.748 Y71.592 E0.09026
G1 X49.389 Y71.309 E0.12289
G1 X51.727 Y70.365 E0.24029
G1 X54.087 Y69.336 E0.36018
G1 X56.432 Y68.234 E0.48083
G1 X57.7 Y67.614 E0.54655
G1 X58.528 Y67.253 E0.58861
G1 X59.52 Y66.923 E0.63729
G1 X60.467 Y66.7 E0.68259
G1 X61.361 Y66.57 E0.72466
G1 X62.173 Y66.515 E0.76256
G1 X62.812 Y66.5 E0.79232
G1 X171.804 Y66.5 E5.86744
G1 X172.689 Y66.513 E5.90866
G1 X173.66 Y66.572 E5.95395
G1 X174.624 Y66.718 E5.99935
G1 X175.571 Y66.949 E6.04474
G1 X176.489 Y67.261 E6.08989
G1 X177.302 Y67.614 E6.13116
G1 X179.74 Y68.797 E6.25734
G1 X182.031 Y69.831 E6.37438
G1 X184.407 Y70.825 E6.49431
G1 X185.631 Y71.318 E6.55576
G1 X186.516 Y71.724 E6.60109
G1 X187.362 Y72.207 E6.64646
G1 X188.161 Y72.762 E6.69176
G1 X188.909 Y73.386 E6.73711
G1 X189.575 Y74.048 E6.78084
G1 X190.224 Y74.821 E6.82784
G1 X190.78 Y75.619 E6.87313
G1 X191.266 Y76.463 E6.91848
G1 X191.647 Y77.282 E6.96054
G1 X191.989 Y78.226 E7.00729
G1 X192.172 Y78.88 E7.03891
G1 X192.86 Y81.676 E7.17299
G1 X193.14 Y82.749 E7.22463
G1 X193.342 Y83.702 E7.26999
G1 X193.452 Y84.598 E7.31202
G1 X193.485 Y85.173 E7.33884
G1 X193.5 Y85.83 E7.36944
G1 X193.499 Y156.9 E10.67876
G1 X193.488 Y157.663 E10.71429
G1 X193.431 Y158.636 E10.75967
G1 X193.286 Y159.599 E10.80502
G1 X193.057 Y160.545 E10.85034
G1 X192.746 Y161.469 E10.89574
G1 X192.354 Y162.36 E10.94107
G1 X191.886 Y163.212 E10.98633
G1 X191.364 Y163.993 E11.03007
G1 X190.731 Y164.778 E11.07703
G1 X190.106 Y165.429 E11.11905
G1 X189.317 Y166.117 E11.1678
G1 X188.557 Y166.667 E11.21148
G1 X187.69 Y167.184 E11.25848
G1 X186.812 Y167.606 E11.30384
G1 X185.901 Y167.948 E11.34915
G1 X184.962 Y168.209 E11.39454
G1 X183.996 Y168.387 E11.44027
G1 X182.845 Y168.485 E11.49406
G1 X182.17 Y168.5 E11.5255
G1 X53.064 Y168.499 E17.53722
G1 X52.331 Y168.488 E17.57135
G1 X51.359 Y168.431 E17.61669
G1 X50.396 Y168.285 E17.66205
G1 X49.45 Y168.056 E17.70737
G1 X48.526 Y167.744 E17.75278
G1 X47.636 Y167.352 E17.79806
G1 X46.813 Y166.901 E17.84176
G1 X45.974 Y166.34 E17.88876
G1 X45.27 Y165.774 E17.93082
G1 X44.517 Y165.049 E17.97949
G1 X43.88 Y164.313 E18.02482
G1 X43.35 Y163.582 E18.06686
G1 X42.814 Y162.685 E18.11552
G1 X42.392 Y161.807 E18.16088
G1 X42.05 Y160.895 E18.20623
G1 X41.79 Y159.957 E18.25156
G1 X41.612 Y158.988 E18.29743
G1 X41.514 Y157.809 E18.35252
G1 X41.5 Y157.158 E18.38284
G1 X41.501 Y86.035 E21.69463
G1 X41.514 Y85.293 E21.72918
G1 X41.574 Y84.322 E21.77448
G1 X41.708 Y83.429 E21.81653
G1 X41.858 Y82.762 E21.84836
G1 X42.441 Y80.493 E21.95745
G1 X42.821 Y78.911 E22.03321
G1 X43.092 Y77.975 E22.07858
G1 X43.445 Y77.068 E22.1239
G1 X43.877 Y76.196 E22.16922
G1 X44.385 Y75.365 E22.21457
G1 X44.964 Y74.582 E22.25992
G1 X45.586 Y73.878 E22.30366
G1 X46.319 Y73.184 E22.35066
G1 X47.083 Y72.581 E22.39598
G0 F6000 X47.303 Y72.915
G1 F900 X48.087 Y72.4 E22.43966
G1 X48.91 Y71.958 E22.48316
G1 X49.539 Y71.68 E22.51518
G1 X51.887 Y70.732 E22.63309
G1 X54.247 Y69.703 E22.75297
G1 X56.602 Y68.596 E22.87414
G1 X57.86 Y67.981 E22.93934
G1 X58.688 Y67.62 E22.9814
G1 X59.612 Y67.312 E23.02676
G1 X60.525 Y67.096 E23.07044
G1 X61.419 Y66.966 E23.11251
G1 X62.182 Y66.915 E23.14812
G1 X62.821 Y66.9 E23.17788
G1 X171.798 Y66.9 E28.25231
G1 X172.665 Y66.912 E28.29268
G1 X173.601 Y66.968 E28.33634
G1 X174.53 Y67.107 E28.38008
G1 X175.443 Y67.328 E28.42382
G1 X176.33 Y67.628 E28.46742
G1 X177.127 Y67.974 E28.50788
G1 X179.566 Y69.158 E28.63413
G1 X181.867 Y70.196 E28.75167
G1 X184.258 Y71.196 E28.87235
G1 X185.465 Y71.682 E28.93294
G1 X186.318 Y72.072 E28.97661
G1 X187.134 Y72.536 E29.02032
G1 X187.905 Y73.07 E29.06399
G1 X188.627 Y73.67 E29.1077
G1 X189.293 Y74.332 E29.15143
G1 X189.896 Y75.05 E29.19509
G1 X190.434 Y75.819 E29.23879
G1 X190.903 Y76.632 E29.2825
G1 X191.284 Y77.451 E29.32456
G1 X191.613 Y78.362 E29.36966
G1 X191.784 Y78.976 E29.39934
G1 X192.473 Y81.777 E29.53365
G1 X192.749 Y82.833 E29.58447
G1 X192.945 Y83.751 E29.62818
G1 X193.055 Y84.647 E29.67022
G1 X193.085 Y85.182 E29.69517
G1 X193.1 Y85.83 E29.72535
G1 X193.099 Y156.895 E33.03443
G1 X193.089 Y157.64 E33.06913
G1 X193.035 Y158.577 E33.11283
G1 X192.897 Y159.506 E33.15656
G1 X192.678 Y160.418 E33.20024
G1 X192.38 Y161.308 E33.24394
G1 X192.003 Y162.168 E33.28766
G1 X191.553 Y162.99 E33.3313
G1 X191.031 Y163.771 E33.37504
G1 X190.442 Y164.501 E33.41872
G1 X189.817 Y165.152 E33.46074
G1 X189.082 Y165.793 E33.50615
G1 X188.322 Y166.343 E33.54984
G1 X187.516 Y166.824 E33.59354
G1 X186.671 Y167.232 E33.63724
G1 X185.793 Y167.563 E33.68093
G1 X184.889 Y167.816 E33.72464
G1 X183.962 Y167.988 E33.76854
G1 X182.811 Y168.086 E33.82233
G1 X182.17 Y168.1 E33.85218
G1 X53.07 Y168.099 E39.86362
G1 X52.354 Y168.089 E39.89696
G1 X51.418 Y168.035 E39.94062
G1 X50.489 Y167.896 E39.98436
G1 X49.577 Y167.677 E40.02803
G1 X48.687 Y167.378 E40.07175
G1 X47.828 Y167.001 E40.11543
G1 X47.005 Y166.55 E40.15913
G1 X46.225 Y166.028 E40.20284
G1 X45.521 Y165.462 E40.2449
G1 X44.819 Y164.787 E40.29025
G1 X44.204 Y164.078 E40.33395
G1 X43.674 Y163.347 E40.37599
G1 X43.174 Y162.511 E40.42135
G1 X42.766 Y161.666 E40.46505
G1 X42.435 Y160.788 E40.50874
G1 X42.183 Y159.884 E40.55244
G1 X42.011 Y158.955 E40.59643
G1 X41.913 Y157.776 E40.65152
G1 X41.9 Y157.158 E40.6803
G1 X41.901 Y86.042 E43.99176
G1 X41.913 Y85.317 E44.02552
G1 X41.97 Y84.381 E44.06919
G1 X42.104 Y83.488 E44.11124
G1 X42.245 Y82.862 E44.14112
G1 X42.828 Y80.593 E44.2502
G1 X43.205 Y79.022 E44.32543
G1 X43.465 Y78.12 E44.36914
G1 X43.804 Y77.245 E44.41284
G1 X44.219 Y76.404 E44.45651
G1 X44.707 Y75.602 E44.50022
G1 X45.264 Y74.847 E44.54391
G1 X45.886 Y74.143 E44.58765
G1 X46.567 Y73.498 E44.63133
G1 X47.303 Y72.915 E44.67505
G0 F6000 X47.523 Y73.249
G1 F900 X48.277 Y72.752 E44.7171
G1 X49.072 Y72.324 E44.75914
G1 X49.689 Y72.051 E44.79056
G1 X52.047 Y71.099 E44.90897
G1 X54.407 Y70.07 E45.02885
G1 X56.772 Y68.958 E45.15054
G1 X58.02 Y68.348 E45.21522
G1 X58.848 Y67.987 E45.25728
G1 X59.705 Y67.701 E45.29935
G1 X60.583 Y67.492 E45.34138
G1 X61.477 Y67.362 E45.38344
G1 X62.191 Y67.315 E45.41676
G1 X62.83 Y67.3 E45.44652
G1 X171.793 Y67.3 E50.5203
G1 X172.642 Y67.311 E50.55983
G1 X173.543 Y67.364 E50.60186
G1 X174.437 Y67.496 E50.64394
G1 X175.315 Y67.707 E50.68599
G1 X176.171 Y67.995 E50.72804
G1 X176.952 Y68.334 E50.76769
G1 X179.392 Y69.519 E50.89399
G1 X181.703 Y70.561 E51.01204
G1 X184.109 Y71.567 E51.13347
G1 X185.299 Y72.046 E51.1932
G1 X186.121 Y72.42 E51.23525
G1 X186.907 Y72.865 E51.27731
G1 X187.65 Y73.378 E51.31935
G1 X188.345 Y73.954 E51.36138
G1 X188.987 Y74.59 E51.40346
G1 X189.569 Y75.28 E51.4455
G1 X190.088 Y76.019 E51.48755
G1 X190.54 Y76.801 E51.5296
G1 X190.921 Y77.62 E51.57166
G1 X191.228 Y78.47 E51.61375
G1 X191.396 Y79.072 E51.64285
G1 X192.086 Y81.878 E51.7774
G1 X192.358 Y82.917 E51.82741
G1 X192.548 Y83.8 E51.86947
G1 X192.658 Y84.696 E51.9115
G1 X192.685 Y85.191 E51.93459
G1 X192.7 Y85.83 E51.96435
G1 X192.699 Y156.89 E55.2732
G1 X192.69 Y157.617 E55.30706
G1 X192.639 Y158.519 E55.34912
G1 X192.508 Y159.413 E55.3912
G1 X192.299 Y160.291 E55.43322
G1 X192.013 Y161.148 E55.47529
G1 X191.652 Y161.976 E55.51735
G1 X191.22 Y162.768 E55.55936
G1 X190.719 Y163.52 E55.60144
G1 X190.153 Y164.224 E55.6435
G1 X189.528 Y164.875 E55.68552
G1 X188.847 Y165.469 E55.7276
G1 X188.116 Y166 E55.76967
G1 X187.342 Y166.464 E55.81169
G1 X186.529 Y166.858 E55.85376
G1 X185.685 Y167.178 E55.89579
G1 X184.815 Y167.423 E55.93787
G1 X183.928 Y167.589 E55.97989
G1 X182.777 Y167.687 E56.03368
G1 X182.17 Y167.7 E56.06195
G1 X53.075 Y167.699 E62.07316
G1 X52.377 Y167.69 E62.10566
G1 X51.476 Y167.639 E62.14768
G1 X50.582 Y167.507 E62.18976
G1 X49.704 Y167.298 E62.23179
G1 X48.847 Y167.011 E62.27387
G1 X48.02 Y166.65 E62.31589
G1 X47.227 Y166.217 E62.35796
G1 X46.476 Y165.716 E62.4
G1 X45.772 Y165.15 E62.44206
G1 X45.121 Y164.524 E62.48412
G1 X44.528 Y163.843 E62.52616
G1 X43.998 Y163.112 E62.56821
G1 X43.534 Y162.337 E62.61027
G1 X43.14 Y161.524 E62.65234
G1 X42.82 Y160.68 E62.69437
G1 X42.576 Y159.81 E62.73644
G1 X42.41 Y158.922 E62.7785
G1 X42.313 Y157.767 E62.83248
G1 X42.3 Y157.158 E62.86084
G1 X42.301 Y86.048 E66.17202
G1 X42.312 Y85.341 E66.20494
G1 X42.366 Y84.44 E66.24697
G1 X42.5 Y83.547 E66.28902
G1 X42.632 Y82.962 E66.31695
G1 X43.215 Y80.693 E66.42603
G1 X43.589 Y79.132 E66.50078
G1 X43.838 Y78.264 E66.54282
G1 X44.163 Y77.421 E66.58489
G1 X44.561 Y76.611 E66.62692
G1 X45.029 Y75.839 E66.66895
G1 X45.564 Y75.111 E66.71102
G1 X46.161 Y74.433 E66.75309
G1 X46.816 Y73.811 E66.79515
G1 X47.523 Y73.249 E66.8372
G1 F2700 E61.8372
;MESH:out.stl
G0 F6000 X81.035 Y83.716
G0 X82.523 Y85.22
G0 X83.077 Y85.548
G0 X84.818 Y86.19
;TYPE:WALL-INNER
G1 F2700 E66.8372
G1 F900 X84.131 Y86.311 E66.86968
G1 X83.794 Y86.301 E66.88538
G1 X83.159 Y86.183 E66.91546
G1 X82.828 Y86.053 E66.93202
G1 X82.309 Y85.742 E66.96019
G1 X82.007 Y85.473 E66.97902
G1 X81.669 Y85.046 E67.00438
G1 X81.535 Y84.822 E67.01653
G1 X81.371 Y84.464 E67.03487
G1 X81.233 Y83.972 E67.05866
G1 X81.216 Y83.716 E67.07061
G1 X81.216 Y83.098 E67.09939
G1 X81.397 Y82.411 E67.13247
G1 X81.551 Y82.132 E67.14731
G1 X81.752 Y81.836 E67.16397
G1 X81.937 Y81.614 E67.17742
G1 X82.197 Y81.362 E67.19428
G1 X82.448 Y81.169 E67.20903
G1 X82.68 Y81.029 E67.22165
G1 X83.022 Y80.88 E67.23902
G1 X83.664 Y80.708 E67.26996
G1 X84.168 Y80.708 E67.29343
G1 X84.58 Y80.751 E67.31272
G1 X84.958 Y80.872 E67.3312
G1 X85.314 Y81.024 E67.34923
G1 X85.708 Y81.278 E67.37106
G1 X86.028 Y81.569 E67.3912
G1 X86.286 Y81.885 E67.41019
G1 X86.518 Y82.273 E67.43124
G1 X86.657 Y82.562 E67.44617
G1 X86.814 Y83.334 E67.48286
G1 X86.813 Y83.635 E67.49687
G1 X86.679 Y84.329 E67.52979
G1 X86.319 Y85.092 E67.56907
G1 X85.934 Y85.523 E67.59598
G1 X85.736 Y85.685 E67.60789
G1 X85.134 Y86.09 E67.64168
G1 X84.818 Y86.19 E67.65711
G0 F6000 X84.895 Y85.77
G1 F900 X84.118 Y85.91 E67.69387
G1 X83.883 Y85.909 E67.70482
G1 X83.289 Y85.802 E67.73292
G1 X83.054 Y85.72 E67.74451
G1 X82.529 Y85.408 E67.77295
G1 X82.33 Y85.235 E67.78523
G1 X81.939 Y84.744 E67.81445
G1 X81.746 Y84.325 E67.83593
G1 X81.614 Y83.848 E67.85898
G1 X81.623 Y83.122 E67.89279
G1 X81.789 Y82.496 E67.92294
G1 X82.142 Y81.973 E67.95233
G1 X82.558 Y81.57 E67.9793
G1 X82.887 Y81.371 E67.9972
G1 X83.131 Y81.265 E68.00959
G1 X83.71 Y81.108 E68.03752
G1 X84.296 Y81.108 E68.06481
G1 X84.801 Y81.24 E68.08911
G1 X85.157 Y81.392 E68.10714
G1 X85.439 Y81.573 E68.12274
G1 X85.759 Y81.865 E68.14291
G1 X85.943 Y82.09 E68.15645
G1 X86.261 Y82.622 E68.18531
G1 X86.417 Y83.388 E68.22171
G1 X86.401 Y83.662 E68.23449
G1 X86.295 Y84.22 E68.26094
G1 X85.956 Y84.9 E68.29632
G1 X85.618 Y85.28 E68.32
G1 X84.895 Y85.77 E68.36067
G0 F6000 X84.641 Y85.41
G1 F900 X84.001 Y85.526 E68.39095
G1 X83.293 Y85.396 E68.42447
G1 X82.68 Y85.033 E68.45764
G1 X82.299 Y84.552 E68.48622
G1 X82.121 Y84.186 E68.50517
G1 X82.021 Y83.798 E68.52383
G1 X82.02 Y83.207 E68.55134
G1 X82.154 Y82.668 E68.57721
G1 X82.448 Y82.233 E68.60165
G1 X82.805 Y81.888 E68.62477
G1 X83.165 Y81.671 E68.64434
G1 X83.757 Y81.508 E68.67294
G1 X84.243 Y81.508 E68.69557
G1 X84.644 Y81.608 E68.71481
G1 X85.095 Y81.801 E68.73765
G1 X85.552 Y82.218 E68.76646
G1 X85.885 Y82.774 E68.79664
G1 X86.022 Y83.486 E68.8304
G1 X85.916 Y84.075 E68.85827
G1 X85.64 Y84.644 E68.88771
G1 X85.359 Y84.971 E68.90779
G1 X84.804 Y85.347 E68.93901
G1 X84.641 Y85.41 E68.94714
G1 F2700 E63.94714
G0 F6000 X84.693 Y85.707
G0 X86.32 Y85.365
G0 X148.582 Y85.255
G0 X150.369 Y86.244
G1 F2700 E68.94714
G1 F900 X149.57 Y85.923 E68.98724
G1 X149.086 Y85.546 E69.01581
G1 X148.729 Y85.149 E69.04067
G1 X148.4 Y84.572 E69.0716
G1 X148.225 Y83.928 E69.10267
G1 X148.205 Y83.244 E69.13453
G1 X148.323 Y82.591 E69.16543
G1 X148.471 Y82.279 E69.18151
G1 X148.675 Y81.939 E69.19997
G1 X148.845 Y81.711 E69.21322
G1 X149.029 Y81.512 E69.22584
G1 X149.319 Y81.248 E69.2441
G1 X149.691 Y81.031 E69.26415
G1 X150.063 Y80.866 E69.2831
G1 X150.386 Y80.768 E69.29882
G1 X151.017 Y80.688 E69.32844
G1 X151.483 Y80.746 E69.3503
G1 X151.759 Y80.807 E69.36346
G1 X152.143 Y80.935 E69.38231
G1 X152.614 Y81.202 E69.40752
G1 X152.986 Y81.522 E69.43037
G1 X153.273 Y81.863 E69.45113
G1 X153.465 Y82.183 E69.4685
G1 X153.599 Y82.479 E69.48363
G1 X153.711 Y82.831 E69.50083
G1 X153.771 Y83.137 E69.51535
G1 X153.815 Y83.643 E69.539
G1 X153.777 Y83.947 E69.55327
G1 X153.551 Y84.671 E69.58859
G1 X153.254 Y85.182 E69.61611
G1 X152.654 Y85.774 E69.65536
G1 X151.873 Y86.193 E69.69662
G1 X151.529 Y86.261 E69.71295
G1 X150.978 Y86.304 E69.73869
G1 X150.369 Y86.244 E69.76718
G0 F6000 X150.451 Y85.846
G1 F900 X149.777 Y85.576 E69.80099
G1 X149.348 Y85.244 E69.82625
G1 X149.046 Y84.904 E69.84743
G1 X148.785 Y84.442 E69.87213
G1 X148.623 Y83.878 E69.89946
G1 X148.605 Y83.314 E69.92573
G1 X148.707 Y82.712 E69.95417
G1 X148.814 Y82.485 E69.96585
G1 X149.074 Y82.052 E69.98937
G1 X149.392 Y81.71 E70.01111
G1 X149.746 Y81.444 E70.03173
G1 X150.353 Y81.175 E70.06265
G1 X151.019 Y81.092 E70.0939
G1 X151.539 Y81.156 E70.1183
G1 X152.017 Y81.315 E70.14175
G1 X152.353 Y81.505 E70.15973
G1 X152.725 Y81.826 E70.18261
G1 X152.93 Y82.069 E70.19741
G1 X153.181 Y82.488 E70.22015
G1 X153.364 Y83.061 E70.24816
G1 X153.419 Y83.721 E70.279
G1 X153.199 Y84.474 E70.31553
G1 X152.938 Y84.934 E70.34016
G1 X152.415 Y85.449 E70.37433
G1 X151.789 Y85.782 E70.40735
G1 X151.563 Y85.857 E70.41844
G1 X150.953 Y85.905 E70.44693
G1 X150.451 Y85.846 E70.47047
G0 F6000 X150.554 Y85.455
G1 F900 X149.984 Y85.228 E70.49904
G1 X149.613 Y84.939 E70.52093
G1 X149.384 Y84.68 E70.53703
G1 X149.15 Y84.277 E70.55873
G1 X149.028 Y83.848 E70.5795
G1 X149 Y83.338 E70.60328
G1 X149.101 Y82.785 E70.62946
G1 X149.393 Y82.297 E70.65594
G1 X149.618 Y82.053 E70.67139
G1 X149.943 Y81.794 E70.69075
G1 X150.464 Y81.563 E70.71728
G1 X151.016 Y81.5 E70.74315
G1 X151.447 Y81.546 E70.76334
G1 X151.89 Y81.694 E70.78509
G1 X152.092 Y81.809 E70.79591
G1 X152.537 Y82.192 E70.82325
G1 X152.815 Y82.654 E70.84835
G1 X152.969 Y83.142 E70.87218
G1 X153.01 Y83.706 E70.89851
G1 X152.813 Y84.345 E70.92965
G1 X152.62 Y84.683 E70.94777
G1 X152.178 Y85.122 E70.97678
G1 X151.559 Y85.45 E71.0094
G1 X150.967 Y85.504 E71.03708
G1 X150.554 Y85.455 E71.05645
G1 F2700 E66.05645
G0 F6000 X150.445 Y85.731
G0 X151.668 Y86.432
G0 X180.9 Y86.944
G0 X181.1 Y156.1
G1 F2700 E71.05645
G1 F900 X181.1 Y86.796 E74.28353
G1 X180.815 Y86.722 E74.29724
G1 X180.424 Y86.426 E74.32008
G1 X180.217 Y86.063 E74.33954
G1 X180.1 Y85.665 E74.35885
G1 X180.1 Y82.9 E74.4876
G1 X172.395 Y82.897 E74.84638
G1 X172.13 Y82.851 E74.8589
G1 X171.759 Y82.689 E74.87776
G1 X171.406 Y82.375 E74.89975
G1 X171.258 Y82.147 E74.91241
G1 X171.126 Y81.771 E74.93097
G1 X171.1 Y81.5 E74.94364
G1 X171.1 Y78.9 E75.06471
G1 X63.9 Y78.9 E80.05639
G1 X63.9 Y81.5 E80.17746
G1 X63.863 Y81.889 E80.19565
G1 X63.619 Y82.37 E80.22077
G1 X63.328 Y82.63 E80.23894
G1 X63.01 Y82.805 E80.25584
G1 X62.604 Y82.897 E80.27523
G1 X54.9 Y82.9 E80.63396
G1 X54.9 Y85.665 E80.76271
G1 X54.783 Y86.063 E80.78202
G1 X54.576 Y86.426 E80.80148
G1 X54.185 Y86.722 E80.82432
G1 X53.9 Y86.796 E80.83803
G1 X53.9 Y156.1 E84.06511
G1 X181.1 Y156.1 E89.98808
G0 F6000 X181.5 Y156.5
G1 F900 X181.5 Y86.5 E93.24757
